app/src/main/assets/luts/cool.cube
TITLE "cool"
LUT_3D_SIZE 16
0.000000 0.020000 0.100000
0.000000 0.020000 0.166667
0.000000 0.020000 0.233333
0.000000 0.020000 0.300000
0.000000 0.020000 0.366667
0.000000 0.020000 0.433333
0.000000 0.020000 0.500000
0.000000 0.020000 0.566667
0.000000 0.020000 0.633333
0.000000 0.020000 0.700000
0.000000 0.020000 0.766667
0.000000 0.020000 0.833333
0.000000 0.020000 0.900000
0.000000 0.020000 0.966667
0.000000 0.020000 1.000000
0.000000 0.020000 1.000000
0.000000 0.086667 0.100000
0.000000 0.086667 0.166667
0.000000 0.086667 0.233333
0.000000 0.086667 0.300000
0.000000 0.086667 0.366667
0.000000 0.086667 0.433333
0.000000 0.086667 0.500000
0.000000 0.086667 0.566667
0.000000 0.086667 0.633333
0.000000 0.086667 0.700000
0.000000 0.086667 0.766667
0.000000 0.086667 0.833333
0.000000 0.086667 0.900000
0.000000 0.086667 0.966667
0.000000 0.086667 1.000000
0.000000 0.086667 1.000000
0.000000 0.153333 0.100000
0.000000 0.153333 0.166667
0.000000 0.153333 0.233333
0.000000 0.153333 0.300000
0.000000 0.153333 0.366667
0.000000 0.153333 0.433333
0.000000 0.153333 0.500000
0.000000 0.153333 0.566667
0.000000 0.153333 0.633333
0.000000 0.153333 0.700000
0.000000 0.153333 0.766667
0.000000 0.153333 0.833333
0.000000 0.153333 0.900000
0.000000 0.153333 0.966667
0.000000 0.153333 1.000000
0.000000 0.153333 1.000000
0.000000 0.220000 0.100000
0.000000 0.220000 0.166667
0.000000 0.220000 0.233333
0.000000 0.220000 0.300000
0.000000 0.220000 0.366667
0.000000 0.220000 0.433333
0.000000 0.220000 0.500000
0.000000 0.220000 0.566667
0.000000 0.220000 0.633333
0.000000 0.220000 0.700000
0.000000 0.220000 0.766667
0.000000 0.220000 0.833333
0.000000 0.220000 0.900000
0.000000 0.220000 0.966667
0.000000 0.220000 1.000000
0.000000 0.220000 1.000000
0.000000 0.286667 0.100000
0.000000 0.286667 0.166667
0.000000 0.286667 0.233333
0.000000 0.286667 0.300000
0.000000 0.286667 0.366667
0.000000 0.286667 0.433333
0.000000 0.286667 0.500000
0.000000 0.286667 0.566667
0.000000 0.286667 0.633333
0.000000 0.286667 0.700000
0.000000 0.286667 0.766667
0.000000 0.286667 0.833333
0.000000 0.286667 0.900000
0.000000 0.286667 0.966667
0.000000 0.286667 1.000000
0.000000 0.286667 1.000000
0.000000 0.353333 0.100000
0.000000 0.353333 0.166667
0.000000 0.353333 0.233333
0.000000 0.353333 0.300000
0.000000 0.353333 0.366667
0.000000 0.353333 0.433333
0.000000 0.353333 0.500000
0.000000 0.353333 0.566667
0.000000 0.353333 0.633333
0.000000 0.353333 0.700000
0.000000 0.353333 0.766667
0.000000 0.353333 0.833333
0.000000 0.353333 0.900000
0.000000 0.353333 0.966667
0.000000 0.353333 1.000000
0.000000 0.353333 1.000000
0.000000 0.420000 0.100000
0.000000 0.420000 0.166667
0.000000 0.420000 0.233333
0.000000 0.420000 0.300000
0.000000 0.420000 0.366667
0.000000 0.420000 0.433333
0.000000 0.420000 0.500000
0.000000 0.420000 0.566667
0.000000 0.420000 0.633333
0.000000 0.420000 0.700000
0.000000 0.420000 0.766667
0.000000 0.420000 0.833333
0.000000 0.420000 0.900000
0.000000 0.420000 0.966667
0.000000 0.420000 1.000000
0.000000 0.420000 1.000000
0.000000 0.486667 0.100000
0.000000 0.486667 0.166667
0.000000 0.486667 0.233333
0.000000 0.486667 0.300000
0.000000 0.486667 0.366667
0.000000 0.486667 0.433333
0.000000 0.486667 0.500000
0.000000 0.486667 0.566667
0.000000 0.486667 0.633333
0.000000 0.486667 0.700000
0.000000 0.486667 0.766667
0.000000 0.486667 0.833333
0.000000 0.486667 0.900000
0.000000 0.486667 0.966667
0.000000 0.486667 1.000000
0.000000 0.486667 1.000000
0.000000 0.553333 0.100000
0.000000 0.553333 0.166667
0.000000 0.553333 0.233333
0.000000 0.553333 0.300000
0.000000 0.553333 0.366667
0.000000 0.553333 0.433333
0.000000 0.553333 0.500000
0.000000 0.553333 0.566667
0.000000 0.553333 0.633333
0.000000 0.553333 0.700000
0.000000 0.553333 0.766667
0.000000 0.553333 0.833333
0.000000 0.553333 0.900000
0.000000 0.553333 0.966667
0.000000 0.553333 1.000000
0.000000 0.553333 1.000000
0.000000 0.620000 0.100000
0.000000 0.620000 0.166667
0.000000 0.620000 0.233333
0.000000 0.620000 0.300000
0.000000 0.620000 0.366667
0.000000 0.620000 0.433333
0.000000 0.620000 0.500000
0.000000 0.620000 0.566667
0.000000 0.620000 0.633333
0.000000 0.620000 0.700000
0.000000 0.620000 0.766667
0.000000 0.620000 0.833333
0.000000 0.620000 0.900000
0.000000 0.620000 0.966667
0.000000 0.620000 1.000000
0.000000 0.620000 1.000000
0.000000 0.686667 0.100000
0.000000 0.686667 0.166667
0.000000 0.686667 0.233333
0.000000 0.686667 0.300000
0.000000 0.686667 0.366667
0.000000 0.686667 0.433333
0.000000 0.686667 0.500000
0.000000 0.686667 0.566667
0.000000 0.686667 0.633333
0.000000 0.686667 0.700000
0.000000 0.686667 0.766667
0.000000 0.686667 0.833333
0.000000 0.686667 0.900000
0.000000 0.686667 0.966667
0.000000 0.686667 1.000000
0.000000 0.686667 1.000000
0.000000 0.753333 0.100000
0.000000 0.753333 0.166667
0.000000 0.753333 0.233333
0.000000 0.753333 0.300000
0.000000 0.753333 0.366667
0.000000 0.753333 0.433333
0.000000 0.753333 0.500000
0.000000 0.753333 0.566667
0.000000 0.753333 0.633333
0.000000 0.753333 0.700000
0.000000 0.753333 0.766667
0.000000 0.753333 0.833333
0.000000 0.753333 0.900000
0.000000 0.753333 0.966667
0.000000 0.753333 1.000000
0.000000 0.753333 1.000000
0.000000 0.820000 0.100000
0.000000 0.820000 0.166667
0.000000 0.820000 0.233333
0.000000 0.820000 0.300000
0.000000 0.820000 0.366667
0.000000 0.820000 0.433333
0.000000 0.820000 0.500000
0.000000 0.820000 0.566667
0.000000 0.820000 0.633333
0.000000 0.820000 0.700000
0.000000 0.820000 0.766667
0.000000 0.820000 0.833333
0.000000 0.820000 0.900000
0.000000 0.820000 0.966667
0.000000 0.820000 1.000000
0.000000 0.820000 1.000000
0.000000 0.886667 0.100000
0.000000 0.886667 0.166667
0.000000 0.886667 0.233333
0.000000 0.886667 0.300000
0.000000 0.886667 0.366667
0.000000 0.886667 0.433333
0.000000 0.886667 0.500000
0.000000 0.886667 0.566667
0.000000 0.886667 0.633333
0.000000 0.886667 0.700000
0.000000 0.886667 0.766667
0.000000 0.886667 0.833333
0.000000 0.886667 0.900000
0.000000 0.886667 0.966667
0.000000 0.886667 1.000000
0.000000 0.886667 1.000000
0.000000 0.953333 0.100000
0.000000 0.953333 0.166667
0.000000 0.953333 0.233333
0.000000 0.953333 0.300000
0.000000 0.953333 0.366667
0.000000 0.953333 0.433333
0.000000 0.953333 0.500000
0.000000 0.953333 0.566667
0.000000 0.953333 0.633333
0.000000 0.953333 0.700000
0.000000 0.953333 0.766667
0.000000 0.953333 0.833333
0.000000 0.953333 0.900000
0.000000 0.953333 0.966667
0.000000 0.953333 1.000000
0.000000 0.953333 1.000000
0.000000 1.000000 0.100000
0.000000 1.000000 0.166667
0.000000 1.000000 0.233333
0.000000 1.000000 0.300000
0.000000 1.000000 0.366667
0.000000 1.000000 0.433333
0.000000 1.000000 0.500000
0.000000 1.000000 0.566667
0.000000 1.000000 0.633333
0.000000 1.000000 0.700000
0.000000 1.000000 0.766667
0.000000 1.000000 0.833333
0.000000 1.000000 0.900000
0.000000 1.000000 0.966667
0.000000 1.000000 1.000000
0.000000 1.000000 1.000000
0.006667 0.020000 0.100000
0.006667 0.020000 0.166667
0.006667 0.020000 0.233333
0.006667 0.020000 0.300000
0.006667 0.020000 0.366667
0.006667 0.020000 0.433333
0.006667 0.020000 0.500000
0.006667 0.020000 0.566667
0.006667 0.020000 0.633333
0.006667 0.020000 0.700000
0.006667 0.020000 0.766667
0.006667 0.020000 0.833333
0.006667 0.020000 0.900000
0.006667 0.020000 0.966667
0.006667 0.020000 1.000000
0.006667 0.020000 1.000000
0.006667 0.086667 0.100000
0.006667 0.086667 0.166667
0.006667 0.086667 0.233333
0.006667 0.086667 0.300000
0.006667 0.086667 0.366667
0.006667 0.086667 0.433333
0.006667 0.086667 0.500000
0.006667 0.086667 0.566667
0.006667 0.086667 0.633333
0.006667 0.086667 0.700000
0.006667 0.086667 0.766667
0.006667 0.086667 0.833333
0.006667 0.086667 0.900000
0.006667 0.086667 0.966667
0.006667 0.086667 1.000000
0.006667 0.086667 1.000000
0.006667 0.153333 0.100000
0.006667 0.153333 0.166667
0.006667 0.153333 0.233333
0.006667 0.153333 0.300000
0.006667 0.153333 0.366667
0.006667 0.153333 0.433333
0.006667 0.153333 0.500000
0.006667 0.153333 0.566667
0.006667 0.153333 0.633333
0.006667 0.153333 0.700000
0.006667 0.153333 0.766667
0.006667 0.153333 0.833333
0.006667 0.153333 0.900000
0.006667 0.153333 0.966667
0.006667 0.153333 1.000000
0.006667 0.153333 1.000000
0.006667 0.220000 0.100000
0.006667 0.220000 0.166667
0.006667 0.220000 0.233333
0.006667 0.220000 0.300000
0.006667 0.220000 0.366667
0.006667 0.220000 0.433333
0.006667 0.220000 0.500000
0.006667 0.220000 0.566667
0.006667 0.220000 0.633333
0.006667 0.220000 0.700000
0.006667 0.220000 0.766667
0.006667 0.220000 0.833333
0.006667 0.220000 0.900000
0.006667 0.220000 0.966667
0.006667 0.220000 1.000000
0.006667 0.220000 1.000000
0.006667 0.286667 0.100000
0.006667 0.286667 0.166667
0.006667 0.286667 0.233333
0.006667 0.286667 0.300000
0.006667 0.286667 0.366667
0.006667 0.286667 0.433333
0.006667 0.286667 0.500000
0.006667 0.286667 0.566667
0.006667 0.286667 0.633333
0.006667 0.286667 0.700000
0.006667 0.286667 0.766667
0.006667 0.286667 0.833333
0.006667 0.286667 0.900000
0.006667 0.286667 0.966667
0.006667 0.286667 1.000000
0.006667 0.286667 1.000000
0.006667 0.353333 0.100000
0.006667 0.353333 0.166667
0.006667 0.353333 0.233333
0.006667 0.353333 0.300000
0.006667 0.353333 0.366667
0.006667 0.353333 0.433333
0.006667 0.353333 0.500000
0.006667 0.353333 0.566667
0.006667 0.353333 0.633333
0.006667 0.353333 0.700000
0.006667 0.353333 0.766667
0.006667 0.353333 0.833333
0.006667 0.353333 0.900000
0.006667 0.353333 0.966667
0.006667 0.353333 1.000000
0.006667 0.353333 1.000000
0.006667 0.420000 0.100000
0.006667 0.420000 0.166667
0.006667 0.420000 0.233333
0.006667 0.420000 0.300000
0.006667 0.420000 0.366667
0.006667 0.420000 0.433333
0.006667 0.420000 0.500000
0.006667 0.420000 0.566667
0.006667 0.420000 0.633333
0.006667 0.420000 0.700000
0.006667 0.420000 0.766667
0.006667 0.420000 0.833333
0.006667 0.420000 0.900000
0.006667 0.420000 0.966667
0.006667 0.420000 1.000000
0.006667 0.420000 1.000000
0.006667 0.486667 0.100000
0.006667 0.486667 0.166667
0.006667 0.486667 0.233333
0.006667 0.486667 0.300000
0.006667 0.486667 0.366667
0.006667 0.486667 0.433333
0.006667 0.486667 0.500000
0.006667 0.486667 0.566667
0.006667 0.486667 0.633333
0.006667 0.486667 0.700000
0.006667 0.486667 0.766667
0.006667 0.486667 0.833333
0.006667 0.486667 0.900000
0.006667 0.486667 0.966667
0.006667 0.486667 1.000000
0.006667 0.486667 1.000000
0.006667 0.553333 0.100000
0.006667 0.553333 0.166667
0.006667 0.553333 0.233333
0.006667 0.553333 0.300000
0.006667 0.553333 0.366667
0.006667 0.553333 0.433333
0.006667 0.553333 0.500000
0.006667 0.553333 0.566667
0.006667 0.553333 0.633333
0.006667 0.553333 0.700000
0.006667 0.553333 0.766667
0.006667 0.553333 0.833333
0.006667 0.553333 0.900000
0.006667 0.553333 0.966667
0.006667 0.553333 1.000000
0.006667 0.553333 1.000000
0.006667 0.620000 0.100000
0.006667 0.620000 0.166667
0.006667 0.620000 0.233333
0.006667 0.620000 0.300000
0.006667 0.620000 0.366667
0.006667 0.620000 0.433333
0.006667 0.620000 0.500000
0.006667 0.620000 0.566667
0.006667 0.620000 0.633333
0.006667 0.620000 0.700000
0.006667 0.620000 0.766667
0.006667 0.620000 0.833333
0.006667 0.620000 0.900000
0.006667 0.620000 0.966667
0.006667 0.620000 1.000000
0.006667 0.620000 1.000000
0.006667 0.686667 0.100000
0.006667 0.686667 0.166667
0.006667 0.686667 0.233333
0.006667 0.686667 0.300000
0.006667 0.686667 0.366667
0.006667 0.686667 0.433333
0.006667 0.686667 0.500000
0.006667 0.686667 0.566667
0.006667 0.686667 0.633333
0.006667 0.686667 0.700000
0.006667 0.686667 0.766667
0.006667 0.686667 0.833333
0.006667 0.686667 0.900000
0.006667 0.686667 0.966667
0.006667 0.686667 1.000000
0.006667 0.686667 1.000000
0.006667 0.753333 0.100000
0.006667 0.753333 0.166667
0.006667 0.753333 0.233333
0.006667 0.753333 0.300000
0.006667 0.753333 0.366667
0.006667 0.753333 0.433333
0.006667 0.753333 0.500000
0.006667 0.753333 0.566667
0.006667 0.753333 0.633333
0.006667 0.753333 0.700000
0.006667 0.753333 0.766667
0.006667 0.753333 0.833333
0.006667 0.753333 0.900000
0.006667 0.753333 0.966667
0.006667 0.753333 1.000000
0.006667 0.753333 1.000000
0.006667 0.820000 0.100000
0.006667 0.820000 0.166667
0.006667 0.820000 0.233333
0.006667 0.820000 0.300000
0.006667 0.820000 0.366667
0.006667 0.820000 0.433333
0.006667 0.820000 0.500000
0.006667 0.820000 0.566667
0.006667 0.820000 0.633333
0.006667 0.820000 0.700000
0.006667 0.820000 0.766667
0.006667 0.820000 0.833333
0.006667 0.820000 0.900000
0.006667 0.820000 0.966667
0.006667 0.820000 1.000000
0.006667 0.820000 1.000000
0.006667 0.886667 0.100000
0.006667 0.886667 0.166667
0.006667 0.886667 0.233333
0.006667 0.886667 0.300000
0.006667 0.886667 0.366667
0.006667 0.886667 0.433333
0.006667 0.886667 0.500000
0.006667 0.886667 0.566667
0.006667 0.886667 0.633333
0.006667 0.886667 0.700000
0.006667 0.886667 0.766667
0.006667 0.886667 0.833333
0.006667 0.886667 0.900000
0.006667 0.886667 0.966667
0.006667 0.886667 1.000000
0.006667 0.886667 1.000000
0.006667 0.953333 0.100000
0.006667 0.953333 0.166667
0.006667 0.953333 0.233333
0.006667 0.953333 0.300000
0.006667 0.953333 0.366667
0.006667 0.953333 0.433333
0.006667 0.953333 0.500000
0.006667 0.953333 0.566667
0.006667 0.953333 0.633333
0.006667 0.953333 0.700000
0.006667 0.953333 0.766667
0.006667 0.953333 0.833333
0.006667 0.953333 0.900000
0.006667 0.953333 0.966667
0.006667 0.953333 1.000000
0.006667 0.953333 1.000000
0.006667 1.000000 0.100000
0.006667 1.000000 0.166667
0.006667 1.000000 0.233333
0.006667 1.000000 0.300000
0.006667 1.000000 0.366667
0.006667 1.000000 0.433333
0.006667 1.000000 0.500000
0.006667 1.000000 0.566667
0.006667 1.000000 0.633333
0.006667 1.000000 0.700000
0.006667 1.000000 0.766667
0.006667 1.000000 0.833333
0.006667 1.000000 0.900000
0.006667 1.000000 0.966667
0.006667 1.000000 1.000000
0.006667 1.000000 1.000000
0.073333 0.020000 0.100000
0.073333 0.020000 0.166667
0.073333 0.020000 0.233333
0.073333 0.020000 0.300000
0.073333 0.020000 0.366667
0.073333 0.020000 0.433333
0.073333 0.020000 0.500000
0.073333 0.020000 0.566667
0.073333 0.020000 0.633333
0.073333 0.020000 0.700000
0.073333 0.020000 0.766667
0.073333 0.020000 0.833333
0.073333 0.020000 0.900000
0.073333 0.020000 0.966667
0.073333 0.020000 1.000000
0.073333 0.020000 1.000000
0.073333 0.086667 0.100000
0.073333 0.086667 0.166667
0.073333 0.086667 0.233333
0.073333 0.086667 0.300000
0.073333 0.086667 0.366667
0.073333 0.086667 0.433333
0.073333 0.086667 0.500000
0.073333 0.086667 0.566667
0.073333 0.086667 0.633333
0.073333 0.086667 0.700000
0.073333 0.086667 0.766667
0.073333 0.086667 0.833333
0.073333 0.086667 0.900000
0.073333 0.086667 0.966667
0.073333 0.086667 1.000000
0.073333 0.086667 1.000000
0.073333 0.153333 0.100000
0.073333 0.153333 0.166667
0.073333 0.153333 0.233333
0.073333 0.153333 0.300000
0.073333 0.153333 0.366667
0.073333 0.153333 0.433333
0.073333 0.153333 0.500000
0.073333 0.153333 0.566667
0.073333 0.153333 0.633333
0.073333 0.153333 0.700000
0.073333 0.153333 0.766667
0.073333 0.153333 0.833333
0.073333 0.153333 0.900000
0.073333 0.153333 0.966667
0.073333 0.153333 1.000000
0.073333 0.153333 1.000000
0.073333 0.220000 0.100000
0.073333 0.220000 0.166667
0.073333 0.220000 0.233333
0.073333 0.220000 0.300000
0.073333 0.220000 0.366667
0.073333 0.220000 0.433333
0.073333 0.220000 0.500000
0.073333 0.220000 0.566667
0.073333 0.220000 0.633333
0.073333 0.220000 0.700000
0.073333 0.220000 0.766667
0.073333 0.220000 0.833333
0.073333 0.220000 0.900000
0.073333 0.220000 0.966667
0.073333 0.220000 1.000000
0.073333 0.220000 1.000000
0.073333 0.286667 0.100000
0.073333 0.286667 0.166667
0.073333 0.286667 0.233333
0.073333 0.286667 0.300000
0.073333 0.286667 0.366667
0.073333 0.286667 0.433333
0.073333 0.286667 0.500000
0.073333 0.286667 0.566667
0.073333 0.286667 0.633333
0.073333 0.286667 0.700000
0.073333 0.286667 0.766667
0.073333 0.286667 0.833333
0.073333 0.286667 0.900000
0.073333 0.286667 0.966667
0.073333 0.286667 1.000000
0.073333 0.286667 1.000000
0.073333 0.353333 0.100000
0.073333 0.353333 0.166667
0.073333 0.353333 0.233333
0.073333 0.353333 0.300000
0.073333 0.353333 0.366667
0.073333 0.353333 0.433333
0.073333 0.353333 0.500000
0.073333 0.353333 0.566667
0.073333 0.353333 0.633333
0.073333 0.353333 0.700000
0.073333 0.353333 0.766667
0.073333 0.353333 0.833333
0.073333 0.353333 0.900000
0.073333 0.353333 0.966667
0.073333 0.353333 1.000000
0.073333 0.353333 1.000000
0.073333 0.420000 0.100000
0.073333 0.420000 0.166667
0.073333 0.420000 0.233333
0.073333 0.420000 0.300000
0.073333 0.420000 0.366667
0.073333 0.420000 0.433333
0.073333 0.420000 0.500000
0.073333 0.420000 0.566667
0.073333 0.420000 0.633333
0.073333 0.420000 0.700000
0.073333 0.420000 0.766667
0.073333 0.420000 0.833333
0.073333 0.420000 0.900000
0.073333 0.420000 0.966667
0.073333 0.420000 1.000000
0.073333 0.420000 1.000000
0.073333 0.486667 0.100000
0.073333 0.486667 0.166667
0.073333 0.486667 0.233333
0.073333 0.486667 0.300000
0.073333 0.486667 0.366667
0.073333 0.486667 0.433333
0.073333 0.486667 0.500000
0.073333 0.486667 0.566667
0.073333 0.486667 0.633333
0.073333 0.486667 0.700000
0.073333 0.486667 0.766667
0.073333 0.486667 0.833333
0.073333 0.486667 0.900000
0.073333 0.486667 0.966667
0.073333 0.486667 1.000000
0.073333 0.486667 1.000000
0.073333 0.553333 0.100000
0.073333 0.553333 0.166667
0.073333 0.553333 0.233333
0.073333 0.553333 0.300000
0.073333 0.553333 0.366667
0.073333 0.553333 0.433333
0.073333 0.553333 0.500000
0.073333 0.553333 0.566667
0.073333 0.553333 0.633333
0.073333 0.553333 0.700000
0.073333 0.553333 0.766667
0.073333 0.553333 0.833333
0.073333 0.553333 0.900000
0.073333 0.553333 0.966667
0.073333 0.553333 1.000000
0.073333 0.553333 1.000000
0.073333 0.620000 0.100000
0.073333 0.620000 0.166667
0.073333 0.620000 0.233333
0.073333 0.620000 0.300000
0.073333 0.620000 0.366667
0.073333 0.620000 0.433333
0.073333 0.620000 0.500000
0.073333 0.620000 0.566667
0.073333 0.620000 0.633333
0.073333 0.620000 0.700000
0.073333 0.620000 0.766667
0.073333 0.620000 0.833333
0.073333 0.620000 0.900000
0.073333 0.620000 0.966667
0.073333 0.620000 1.000000
0.073333 0.620000 1.000000
0.073333 0.686667 0.100000
0.073333 0.686667 0.166667
0.073333 0.686667 0.233333
0.073333 0.686667 0.300000
0.073333 0.686667 0.366667
0.073333 0.686667 0.433333
0.073333 0.686667 0.500000
0.073333 0.686667 0.566667
0.073333 0.686667 0.633333
0.073333 0.686667 0.700000
0.073333 0.686667 0.766667
0.073333 0.686667 0.833333
0.073333 0.686667 0.900000
0.073333 0.686667 0.966667
0.073333 0.686667 1.000000
0.073333 0.686667 1.000000
0.073333 0.753333 0.100000
0.073333 0.753333 0.166667
0.073333 0.753333 0.233333
0.073333 0.753333 0.300000
0.073333 0.753333 0.366667
0.073333 0.753333 0.433333
0.073333 0.753333 0.500000
0.073333 0.753333 0.566667
0.073333 0.753333 0.633333
0.073333 0.753333 0.700000
0.073333 0.753333 0.766667
0.073333 0.753333 0.833333
0.073333 0.753333 0.900000
0.073333 0.753333 0.966667
0.073333 0.753333 1.000000
0.073333 0.753333 1.000000
0.073333 0.820000 0.100000
0.073333 0.820000 0.166667
0.073333 0.820000 0.233333
0.073333 0.820000 0.300000
0.073333 0.820000 0.366667
0.073333 0.820000 0.433333
0.073333 0.820000 0.500000
0.073333 0.820000 0.566667
0.073333 0.820000 0.633333
0.073333 0.820000 0.700000
0.073333 0.820000 0.766667
0.073333 0.820000 0.833333
0.073333 0.820000 0.900000
0.073333 0.820000 0.966667
0.073333 0.820000 1.000000
0.073333 0.820000 1.000000
0.073333 0.886667 0.100000
0.073333 0.886667 0.166667
0.073333 0.886667 0.233333
0.073333 0.886667 0.300000
0.073333 0.886667 0.366667
0.073333 0.886667 0.433333
0.073333 0.886667 0.500000
0.073333 0.886667 0.566667
0.073333 0.886667 0.633333
0.073333 0.886667 0.700000
0.073333 0.886667 0.766667
0.073333 0.886667 0.833333
0.073333 0.886667 0.900000
0.073333 0.886667 0.966667
0.073333 0.886667 1.000000
0.073333 0.886667 1.000000
0.073333 0.953333 0.100000
0.073333 0.953333 0.166667
0.073333 0.953333 0.233333
0.073333 0.953333 0.300000
0.073333 0.953333 0.366667
0.073333 0.953333 0.433333
0.073333 0.953333 0.500000
0.073333 0.953333 0.566667
0.073333 0.953333 0.633333
0.073333 0.953333 0.700000
0.073333 0.953333 0.766667
0.073333 0.953333 0.833333
0.073333 0.953333 0.900000
0.073333 0.953333 0.966667
0.073333 0.953333 1.000000
0.073333 0.953333 1.000000
0.073333 1.000000 0.100000
0.073333 1.000000 0.166667
0.073333 1.000000 0.233333
0.073333 1.000000 0.300000
0.073333 1.000000 0.366667
0.073333 1.000000 0.433333
0.073333 1.000000 0.500000
0.073333 1.000000 0.566667
0.073333 1.000000 0.633333
0.073333 1.000000 0.700000
0.073333 1.000000 0.766667
0.073333 1.000000 0.833333
0.073333 1.000000 0.900000
0.073333 1.000000 0.966667
0.073333 1.000000 1.000000
0.073333 1.000000 1.000000
0.140000 0.020000 0.100000
0.140000 0.020000 0.166667
0.140000 0.020000 0.233333
0.140000 0.020000 0.300000
0.140000 0.020000 0.366667
0.140000 0.020000 0.433333
0.140000 0.020000 0.500000
0.140000 0.020000 0.566667
0.140000 0.020000 0.633333
0.140000 0.020000 0.700000
0.140000 0.020000 0.766667
0.140000 0.020000 0.833333
0.140000 0.020000 0.900000
0.140000 0.020000 0.966667
0.140000 0.020000 1.000000
0.140000 0.020000 1.000000
0.140000 0.086667 0.100000
0.140000 0.086667 0.166667
0.140000 0.086667 0.233333
0.140000 0.086667 0.300000
0.140000 0.086667 0.366667
0.140000 0.086667 0.433333
0.140000 0.086667 0.500000
0.140000 0.086667 0.566667
0.140000 0.086667 0.633333
0.140000 0.086667 0.700000
0.140000 0.086667 0.766667
0.140000 0.086667 0.833333
0.140000 0.086667 0.900000
0.140000 0.086667 0.966667
0.140000 0.086667 1.000000
0.140000 0.086667 1.000000
0.140000 0.153333 0.100000
0.140000 0.153333 0.166667
0.140000 0.153333 0.233333
0.140000 0.153333 0.300000
0.140000 0.153333 0.366667
0.140000 0.153333 0.433333
0.140000 0.153333 0.500000
0.140000 0.153333 0.566667
0.140000 0.153333 0.633333
0.140000 0.153333 0.700000
0.140000 0.153333 0.766667
0.140000 0.153333 0.833333
0.140000 0.153333 0.900000
0.140000 0.153333 0.966667
0.140000 0.153333 1.000000
0.140000 0.153333 1.000000
0.140000 0.220000 0.100000
0.140000 0.220000 0.166667
0.140000 0.220000 0.233333
0.140000 0.220000 0.300000
0.140000 0.220000 0.366667
0.140000 0.220000 0.433333
0.140000 0.220000 0.500000
0.140000 0.220000 0.566667
0.140000 0.220000 0.633333
0.140000 0.220000 0.700000
0.140000 0.220000 0.766667
0.140000 0.220000 0.833333
0.140000 0.220000 0.900000
0.140000 0.220000 0.966667
0.140000 0.220000 1.000000
0.140000 0.220000 1.000000
0.140000 0.286667 0.100000
0.140000 0.286667 0.166667
0.140000 0.286667 0.233333
0.140000 0.286667 0.300000
0.140000 0.286667 0.366667
0.140000 0.286667 0.433333
0.140000 0.286667 0.500000
0.140000 0.286667 0.566667
0.140000 0.286667 0.633333
0.140000 0.286667 0.700000
0.140000 0.286667 0.766667
0.140000 0.286667 0.833333
0.140000 0.286667 0.900000
0.140000 0.286667 0.966667
0.140000 0.286667 1.000000
0.140000 0.286667 1.000000
0.140000 0.353333 0.100000
0.140000 0.353333 0.166667
0.140000 0.353333 0.233333
0.140000 0.353333 0.300000
0.140000 0.353333 0.366667
0.140000 0.353333 0.433333
0.140000 0.353333 0.500000
0.140000 0.353333 0.566667
0.140000 0.353333 0.633333
0.140000 0.353333 0.700000
0.140000 0.353333 0.766667
0.140000 0.353333 0.833333
0.140000 0.353333 0.900000
0.140000 0.353333 0.966667
0.140000 0.353333 1.000000
0.140000 0.353333 1.000000
0.140000 0.420000 0.100000
0.140000 0.420000 0.166667
0.140000 0.420000 0.233333
0.140000 0.420000 0.300000
0.140000 0.420000 0.366667
0.140000 0.420000 0.433333
0.140000 0.420000 0.500000
0.140000 0.420000 0.566667
0.140000 0.420000 0.633333
0.140000 0.420000 0.700000
0.140000 0.420000 0.766667
0.140000 0.420000 0.833333
0.140000 0.420000 0.900000
0.140000 0.420000 0.966667
0.140000 0.420000 1.000000
0.140000 0.420000 1.000000
0.140000 0.486667 0.100000
0.140000 0.486667 0.166667
0.140000 0.486667 0.233333
0.140000 0.486667 0.300000
0.140000 0.486667 0.366667
0.140000 0.486667 0.433333
0.140000 0.486667 0.500000
