app/src/main/assets/luts/cool.cube
TITLE "cool"
LUT_3D_SIZE 6
0.000000 0.020000 0.100000
0.000000 0.020000 0.300000
0.000000 0.020000 0.500000
0.000000 0.020000 0.700000
0.000000 0.020000 0.900000
0.000000 0.020000 1.000000
0.000000 0.220000 0.100000
0.000000 0.220000 0.300000
0.000000 0.220000 0.500000
0.000000 0.220000 0.700000
0.000000 0.220000 0.900000
0.000000 0.220000 1.000000
0.000000 0.420000 0.100000
0.000000 0.420000 0.300000
0.000000 0.420000 0.500000
0.000000 0.420000 0.700000
0.000000 0.420000 0.900000
0.000000 0.420000 1.000000
0.000000 0.620000 0.100000
0.000000 0.620000 0.300000
0.000000 0.620000 0.500000
0.000000 0.620000 0.700000
0.000000 0.620000 0.900000
0.000000 0.620000 1.000000
0.000000 0.820000 0.100000
0.000000 0.820000 0.300000
0.000000 0.820000 0.500000
0.000000 0.820000 0.700000
0.000000 0.820000 0.900000
0.000000 0.820000 1.000000
0.000000 1.000000 0.100000
0.000000 1.000000 0.300000
0.000000 1.000000 0.500000
0.000000 1.000000 0.700000
0.000000 1.000000 0.900000
0.000000 1.000000 1.000000
0.140000 0.020000 0.100000
0.140000 0.020000 0.300000
0.140000 0.020000 0.500000
0.140000 0.020000 0.700000
0.140000 0.020000 0.900000
0.140000 0.020000 1.000000
0.140000 0.220000 0.100000
0.140000 0.220000 0.300000
0.140000 0.220000 0.500000
0.140000 0.220000 0.700000
0.140000 0.220000 0.900000
0.140000 0.220000 1.000000
0.140000 0.420000 0.100000
0.140000 0.420000 0.300000
0.140000 0.420000 0.500000
0.140000 0.420000 0.700000
0.140000 0.420000 0.900000
0.140000 0.420000 1.000000
0.140000 0.620000 0.100000
0.140000 0.620000 0.300000
0.140000 0.620000 0.500000
0.140000 0.620000 0.700000
0.140000 0.620000 0.900000
0.140000 0.620000 1.000000
0.140000 0.820000 0.100000
0.140000 0.820000 0.300000
0.140000 0.820000 0.500000
0.140000 0.820000 0.700000
0.140000 0.820000 0.900000
0.140000 0.820000 1.000000
0.140000 1.000000 0.100000
0.140000 1.000000 0.300000
0.140000 1.000000 0.500000
0.140000 1.000000 0.700000
0.140000 1.000000 0.900000
0.140000 1.000000 1.000000
0.340000 0.020000 0.100000
0.340000 0.020000 0.300000
0.340000 0.020000 0.500000
0.340000 0.020000 0.700000
0.340000 0.020000 0.900000
0.340000 0.020000 1.000000
0.340000 0.220000 0.100000
0.340000 0.220000 0.300000
0.340000 0.220000 0.500000
0.340000 0.220000 0.700000
0.340000 0.220000 0.900000
0.340000 0.220000 1.000000
0.340000 0.420000 0.100000
0.340000 0.420000 0.300000
0.340000 0.420000 0.500000
0.340000 0.420000 0.700000
0.340000 0.420000 0.900000
0.340000 0.420000 1.000000
0.340000 0.620000 0.100000
0.340000 0.620000 0.300000
0.340000 0.620000 0.500000
0.340000 0.620000 0.700000
0.340000 0.620000 0.900000
0.340000 0.620000 1.000000
0.340000 0.820000 0.100000
0.340000 0.820000 0.300000
0.340000 0.820000 0.500000
0.340000 0.820000 0.700000
0.340000 0.820000 0.900000
0.340000 0.820000 1.000000
0.340000 1.000000 0.100000
0.340000 1.000000 0.300000
0.340000 1.000000 0.500000
0.340000 1.000000 0.700000
0.340000 1.000000 0.900000
0.340000 1.000000 1.000000
0.540000 0.020000 0.100000
0.540000 0.020000 0.300000
0.540000 0.020000 0.500000
0.540000 0.020000 0.700000
0.540000 0.020000 0.900000
0.540000 0.020000 1.000000
0.540000 0.220000 0.100000
0.540000 0.220000 0.300000
0.540000 0.220000 0.500000
0.540000 0.220000 0.700000
0.540000 0.220000 0.900000
0.540000 0.220000 1.000000
0.540000 0.420000 0.100000
0.540000 0.420000 0.300000
0.540000 0.420000 0.500000
0.540000 0.420000 0.700000
0.540000 0.420000 0.900000
0.540000 0.420000 1.000000
0.540000 0.620000 0.100000
0.540000 0.620000 0.300000
0.540000 0.620000 0.500000
0.540000 0.620000 0.700000
0.540000 0.620000 0.900000
0.540000 0.620000 1.000000
0.540000 0.820000 0.100000
0.540000 0.820000 0.300000
0.540000 0.820000 0.500000
0.540000 0.820000 0.700000
0.540000 0.820000 0.900000
0.540000 0.820000 1.000000
0.540000 1.000000 0.100000
0.540000 1.000000 0.300000
0.540000 1.000000 0.500000
0.540000 1.000000 0.700000
0.540000 1.000000 0.900000
0.540000 1.000000 1.000000
0.740000 0.020000 0.100000
0.740000 0.020000 0.300000
0.740000 0.020000 0.500000
0.740000 0.020000 0.700000
0.740000 0.020000 0.900000
0.740000 0.020000 1.000000
0.740000 0.220000 0.100000
0.740000 0.220000 0.300000
0.740000 0.220000 0.500000
0.740000 0.220000 0.700000
0.740000 0.220000 0.900000
0.740000 0.220000 1.000000
0.740000 0.420000 0.100000
0.740000 0.420000 0.300000
0.740000 0.420000 0.500000
0.740000 0.420000 0.700000
0.740000 0.420000 0.900000
0.740000 0.420000 1.000000
0.740000 0.620000 0.100000
0.740000 0.620000 0.300000
0.740000 0.620000 0.500000
0.740000 0.620000 0.700000
0.740000 0.620000 0.900000
0.740000 0.620000 1.000000
0.740000 0.820000 0.100000
0.740000 0.820000 0.300000
0.740000 0.820000 0.500000
0.740000 0.820000 0.700000
0.740000 0.820000 0.900000
0.740000 0.820000 1.000000
0.740000 1.000000 0.100000
0.740000 1.000000 0.300000
0.740000 1.000000 0.500000
0.740000 1.000000 0.700000
0.740000 1.000000 0.900000
0.740000 1.000000 1.000000
0.940000 0.020000 0.100000
0.940000 0.020000 0.300000
0.940000 0.020000 0.500000
0.940000 0.020000 0.700000
0.940000 0.020000 0.900000
0.940000 0.020000 1.000000
0.940000 0.220000 0.100000
0.940000 0.220000 0.300000
0.940000 0.220000 0.500000
0.940000 0.220000 0.700000
0.940000 0.220000 0.900000
0.940000 0.220000 1.000000
0.940000 0.420000 0.100000
0.940000 0.420000 0.300000
0.940000 0.420000 0.500000
0.940000 0.420000 0.700000
0.940000 0.420000 0.900000
0.940000 0.420000 1.000000
0.940000 0.620000 0.100000
0.940000 0.620000 0.300000
0.940000 0.620000 0.500000
0.940000 0.620000 0.700000
0.940000 0.620000 0.900000
0.940000 0.620000 1.000000
0.940000 0.820000 0.100000
0.940000 0.820000 0.300000
0.940000 0.820000 0.500000
0.940000 0.820000 0.700000
0.940000 0.820000 0.900000
0.940000 0.820000 1.000000
0.940000 1.000000 0.100000
0.940000 1.000000 0.300000
0.940000 1.000000 0.500000
0.940000 1.000000 0.700000
0.940000 1.000000 0.900000
0.940000 1.000000 1.000000
