app/src/main/assets/luts/punchy.cube
TITLE "punchy"
LUT_3D_SIZE 6
0.020000 0.010000 0.020000
0.020000 0.010000 0.244000
0.020000 0.010000 0.468000
0.020000 0.010000 0.692000
0.020000 0.010000 0.916000
0.020000 0.010000 1.000000
0.020000 0.226000 0.020000
0.020000 0.226000 0.244000
0.020000 0.226000 0.468000
0.020000 0.226000 0.692000
0.020000 0.226000 0.916000
0.020000 0.226000 1.000000
0.020000 0.442000 0.020000
0.020000 0.442000 0.244000
0.020000 0.442000 0.468000
0.020000 0.442000 0.692000
0.020000 0.442000 0.916000
0.020000 0.442000 1.000000
0.020000 0.658000 0.020000
0.020000 0.658000 0.244000
0.020000 0.658000 0.468000
0.020000 0.658000 0.692000
0.020000 0.658000 0.916000
0.020000 0.658000 1.000000
0.020000 0.874000 0.020000
0.020000 0.874000 0.244000
0.020000 0.874000 0.468000
0.020000 0.874000 0.692000
0.020000 0.874000 0.916000
0.020000 0.874000 1.000000
0.020000 1.000000 0.020000
0.020000 1.000000 0.244000
0.020000 1.000000 0.468000
0.020000 1.000000 0.692000
0.020000 1.000000 0.916000
0.020000 1.000000 1.000000
0.244000 0.010000 0.020000
0.244000 0.010000 0.244000
0.244000 0.010000 0.468000
0.244000 0.010000 0.692000
0.244000 0.010000 0.916000
0.244000 0.010000 1.000000
0.244000 0.226000 0.020000
0.244000 0.226000 0.244000
0.244000 0.226000 0.468000
0.244000 0.226000 0.692000
0.244000 0.226000 0.916000
0.244000 0.226000 1.000000
0.244000 0.442000 0.020000
0.244000 0.442000 0.244000
0.244000 0.442000 0.468000
0.244000 0.442000 0.692000
0.244000 0.442000 0.916000
0.244000 0.442000 1.000000
0.244000 0.658000 0.020000
0.244000 0.658000 0.244000
0.244000 0.658000 0.468000
0.244000 0.658000 0.692000
0.244000 0.658000 0.916000
0.244000 0.658000 1.000000
0.244000 0.874000 0.020000
0.244000 0.874000 0.244000
0.244000 0.874000 0.468000
0.244000 0.874000 0.692000
0.244000 0.874000 0.916000
0.244000 0.874000 1.000000
0.244000 1.000000 0.020000
0.244000 1.000000 0.244000
0.244000 1.000000 0.468000
0.244000 1.000000 0.692000
0.244000 1.000000 0.916000
0.244000 1.000000 1.000000
0.468000 0.010000 0.020000
0.468000 0.010000 0.244000
0.468000 0.010000 0.468000
0.468000 0.010000 0.692000
0.468000 0.010000 0.916000
0.468000 0.010000 1.000000
0.468000 0.226000 0.020000
0.468000 0.226000 0.244000
0.468000 0.226000 0.468000
0.468000 0.226000 0.692000
0.468000 0.226000 0.916000
0.468000 0.226000 1.000000
0.468000 0.442000 0.020000
0.468000 0.442000 0.244000
0.468000 0.442000 0.468000
0.468000 0.442000 0.692000
0.468000 0.442000 0.916000
0.468000 0.442000 1.000000
0.468000 0.658000 0.020000
0.468000 0.658000 0.244000
0.468000 0.658000 0.468000
0.468000 0.658000 0.692000
0.468000 0.658000 0.916000
0.468000 0.658000 1.000000
0.468000 0.874000 0.020000
0.468000 0.874000 0.244000
0.468000 0.874000 0.468000
0.468000 0.874000 0.692000
0.468000 0.874000 0.916000
0.468000 0.874000 1.000000
0.468000 1.000000 0.020000
0.468000 1.000000 0.244000
0.468000 1.000000 0.468000
0.468000 1.000000 0.692000
0.468000 1.000000 0.916000
0.468000 1.000000 1.000000
0.692000 0.010000 0.020000
0.692000 0.010000 0.244000
0.692000 0.010000 0.468000
0.692000 0.010000 0.692000
0.692000 0.010000 0.916000
0.692000 0.010000 1.000000
0.692000 0.226000 0.020000
0.692000 0.226000 0.244000
0.692000 0.226000 0.468000
0.692000 0.226000 0.692000
0.692000 0.226000 0.916000
0.692000 0.226000 1.000000
0.692000 0.442000 0.020000
0.692000 0.442000 0.244000
0.692000 0.442000 0.468000
0.692000 0.442000 0.692000
0.692000 0.442000 0.916000
0.692000 0.442000 1.000000
0.692000 0.658000 0.020000
0.692000 0.658000 0.244000
0.692000 0.658000 0.468000
0.692000 0.658000 0.692000
0.692000 0.658000 0.916000
0.692000 0.658000 1.000000
0.692000 0.874000 0.020000
0.692000 0.874000 0.244000
0.692000 0.874000 0.468000
0.692000 0.874000 0.692000
0.692000 0.874000 0.916000
0.692000 0.874000 1.000000
0.692000 1.000000 0.020000
0.692000 1.000000 0.244000
0.692000 1.000000 0.468000
0.692000 1.000000 0.692000
0.692000 1.000000 0.916000
0.692000 1.000000 1.000000
0.916000 0.010000 0.020000
0.916000 0.010000 0.244000
0.916000 0.010000 0.468000
0.916000 0.010000 0.692000
0.916000 0.010000 0.916000
0.916000 0.010000 1.000000
0.916000 0.226000 0.020000
0.916000 0.226000 0.244000
0.916000 0.226000 0.468000
0.916000 0.226000 0.692000
0.916000 0.226000 0.916000
0.916000 0.226000 1.000000
0.916000 0.442000 0.020000
0.916000 0.442000 0.244000
0.916000 0.442000 0.468000
0.916000 0.442000 0.692000
0.916000 0.442000 0.916000
0.916000 0.442000 1.000000
0.916000 0.658000 0.020000
0.916000 0.658000 0.244000
0.916000 0.658000 0.468000
0.916000 0.658000 0.692000
0.916000 0.658000 0.916000
0.916000 0.658000 1.000000
0.916000 0.874000 0.020000
0.916000 0.874000 0.244000
0.916000 0.874000 0.468000
0.916000 0.874000 0.692000
0.916000 0.874000 0.916000
0.916000 0.874000 1.000000
0.916000 1.000000 0.020000
0.916000 1.000000 0.244000
0.916000 1.000000 0.468000
0.916000 1.000000 0.692000
0.916000 1.000000 0.916000
0.916000 1.000000 1.000000
1.000000 0.010000 0.020000
1.000000 0.010000 0.244000
1.000000 0.010000 0.468000
1.000000 0.010000 0.692000
1.000000 0.010000 0.916000
1.000000 0.010000 1.000000
1.000000 0.226000 0.020000
1.000000 0.226000 0.244000
1.000000 0.226000 0.468000
1.000000 0.226000 0.692000
1.000000 0.226000 0.916000
1.000000 0.226000 1.000000
1.000000 0.442000 0.020000
1.000000 0.442000 0.244000
1.000000 0.442000 0.468000
1.000000 0.442000 0.692000
1.000000 0.442000 0.916000
1.000000 0.442000 1.000000
1.000000 0.658000 0.020000
1.000000 0.658000 0.244000
1.000000 0.658000 0.468000
1.000000 0.658000 0.692000
1.000000 0.658000 0.916000
1.000000 0.658000 1.000000
1.000000 0.874000 0.020000
1.000000 0.874000 0.244000
1.000000 0.874000 0.468000
1.000000 0.874000 0.692000
1.000000 0.874000 0.916000
1.000000 0.874000 1.000000
1.000000 1.000000 0.020000
1.000000 1.000000 0.244000
1.000000 1.000000 0.468000
1.000000 1.000000 0.692000
1.000000 1.000000 0.916000
1.000000 1.000000 1.000000
