app/src/main/assets/luts/punchy.cube
TITLE "punchy"
LUT_3D_SIZE 16
0.020000 0.010000 0.020000
0.020000 0.010000 0.094667
0.020000 0.010000 0.169333
0.020000 0.010000 0.244000
0.020000 0.010000 0.318667
0.020000 0.010000 0.393333
0.020000 0.010000 0.468000
0.020000 0.010000 0.542667
0.020000 0.010000 0.617333
0.020000 0.010000 0.692000
0.020000 0.010000 0.766667
0.020000 0.010000 0.841333
0.020000 0.010000 0.916000
0.020000 0.010000 0.990667
0.020000 0.010000 1.000000
0.020000 0.010000 1.000000
0.020000 0.082000 0.020000
0.020000 0.082000 0.094667
0.020000 0.082000 0.169333
0.020000 0.082000 0.244000
0.020000 0.082000 0.318667
0.020000 0.082000 0.393333
0.020000 0.082000 0.468000
0.020000 0.082000 0.542667
0.020000 0.082000 0.617333
0.020000 0.082000 0.692000
0.020000 0.082000 0.766667
0.020000 0.082000 0.841333
0.020000 0.082000 0.916000
0.020000 0.082000 0.990667
0.020000 0.082000 1.000000
0.020000 0.082000 1.000000
0.020000 0.154000 0.020000
0.020000 0.154000 0.094667
0.020000 0.154000 0.169333
0.020000 0.154000 0.244000
0.020000 0.154000 0.318667
0.020000 0.154000 0.393333
0.020000 0.154000 0.468000
0.020000 0.154000 0.542667
0.020000 0.154000 0.617333
0.020000 0.154000 0.692000
0.020000 0.154000 0.766667
0.020000 0.154000 0.841333
0.020000 0.154000 0.916000
0.020000 0.154000 0.990667
0.020000 0.154000 1.000000
0.020000 0.154000 1.000000
0.020000 0.226000 0.020000
0.020000 0.226000 0.094667
0.020000 0.226000 0.169333
0.020000 0.226000 0.244000
0.020000 0.226000 0.318667
0.020000 0.226000 0.393333
0.020000 0.226000 0.468000
0.020000 0.226000 0.542667
0.020000 0.226000 0.617333
0.020000 0.226000 0.692000
0.020000 0.226000 0.766667
0.020000 0.226000 0.841333
0.020000 0.226000 0.916000
0.020000 0.226000 0.990667
0.020000 0.226000 1.000000
0.020000 0.226000 1.000000
0.020000 0.298000 0.020000
0.020000 0.298000 0.094667
0.020000 0.298000 0.169333
0.020000 0.298000 0.244000
0.020000 0.298000 0.318667
0.020000 0.298000 0.393333
0.020000 0.298000 0.468000
0.020000 0.298000 0.542667
0.020000 0.298000 0.617333
0.020000 0.298000 0.692000
0.020000 0.298000 0.766667
0.020000 0.298000 0.841333
0.020000 0.298000 0.916000
0.020000 0.298000 0.990667
0.020000 0.298000 1.000000
0.020000 0.298000 1.000000
0.020000 0.370000 0.020000
0.020000 0.370000 0.094667
0.020000 0.370000 0.169333
0.020000 0.370000 0.244000
0.020000 0.370000 0.318667
0.020000 0.370000 0.393333
0.020000 0.370000 0.468000
0.020000 0.370000 0.542667
0.020000 0.370000 0.617333
0.020000 0.370000 0.692000
0.020000 0.370000 0.766667
0.020000 0.370000 0.841333
0.020000 0.370000 0.916000
0.020000 0.370000 0.990667
0.020000 0.370000 1.000000
0.020000 0.370000 1.000000
0.020000 0.442000 0.020000
0.020000 0.442000 0.094667
0.020000 0.442000 0.169333
0.020000 0.442000 0.244000
0.020000 0.442000 0.318667
0.020000 0.442000 0.393333
0.020000 0.442000 0.468000
0.020000 0.442000 0.542667
0.020000 0.442000 0.617333
0.020000 0.442000 0.692000
0.020000 0.442000 0.766667
0.020000 0.442000 0.841333
0.020000 0.442000 0.916000
0.020000 0.442000 0.990667
0.020000 0.442000 1.000000
0.020000 0.442000 1.000000
0.020000 0.514000 0.020000
0.020000 0.514000 0.094667
0.020000 0.514000 0.169333
0.020000 0.514000 0.244000
0.020000 0.514000 0.318667
0.020000 0.514000 0.393333
0.020000 0.514000 0.468000
0.020000 0.514000 0.542667
0.020000 0.514000 0.617333
0.020000 0.514000 0.692000
0.020000 0.514000 0.766667
0.020000 0.514000 0.841333
0.020000 0.514000 0.916000
0.020000 0.514000 0.990667
0.020000 0.514000 1.000000
0.020000 0.514000 1.000000
0.020000 0.586000 0.020000
0.020000 0.586000 0.094667
0.020000 0.586000 0.169333
0.020000 0.586000 0.244000
0.020000 0.586000 0.318667
0.020000 0.586000 0.393333
0.020000 0.586000 0.468000
0.020000 0.586000 0.542667
0.020000 0.586000 0.617333
0.020000 0.586000 0.692000
0.020000 0.586000 0.766667
0.020000 0.586000 0.841333
0.020000 0.586000 0.916000
0.020000 0.586000 0.990667
0.020000 0.586000 1.000000
0.020000 0.586000 1.000000
0.020000 0.658000 0.020000
0.020000 0.658000 0.094667
0.020000 0.658000 0.169333
0.020000 0.658000 0.244000
0.020000 0.658000 0.318667
0.020000 0.658000 0.393333
0.020000 0.658000 0.468000
0.020000 0.658000 0.542667
0.020000 0.658000 0.617333
0.020000 0.658000 0.692000
0.020000 0.658000 0.766667
0.020000 0.658000 0.841333
0.020000 0.658000 0.916000
0.020000 0.658000 0.990667
0.020000 0.658000 1.000000
0.020000 0.658000 1.000000
0.020000 0.730000 0.020000
0.020000 0.730000 0.094667
0.020000 0.730000 0.169333
0.020000 0.730000 0.244000
0.020000 0.730000 0.318667
0.020000 0.730000 0.393333
0.020000 0.730000 0.468000
0.020000 0.730000 0.542667
0.020000 0.730000 0.617333
0.020000 0.730000 0.692000
0.020000 0.730000 0.766667
0.020000 0.730000 0.841333
0.020000 0.730000 0.916000
0.020000 0.730000 0.990667
0.020000 0.730000 1.000000
0.020000 0.730000 1.000000
0.020000 0.802000 0.020000
0.020000 0.802000 0.094667
0.020000 0.802000 0.169333
0.020000 0.802000 0.244000
0.020000 0.802000 0.318667
0.020000 0.802000 0.393333
0.020000 0.802000 0.468000
0.020000 0.802000 0.542667
0.020000 0.802000 0.617333
0.020000 0.802000 0.692000
0.020000 0.802000 0.766667
0.020000 0.802000 0.841333
0.020000 0.802000 0.916000
0.020000 0.802000 0.990667
0.020000 0.802000 1.000000
0.020000 0.802000 1.000000
0.020000 0.874000 0.020000
0.020000 0.874000 0.094667
0.020000 0.874000 0.169333
0.020000 0.874000 0.244000
0.020000 0.874000 0.318667
0.020000 0.874000 0.393333
0.020000 0.874000 0.468000
0.020000 0.874000 0.542667
0.020000 0.874000 0.617333
0.020000 0.874000 0.692000
0.020000 0.874000 0.766667
0.020000 0.874000 0.841333
0.020000 0.874000 0.916000
0.020000 0.874000 0.990667
0.020000 0.874000 1.000000
0.020000 0.874000 1.000000
0.020000 0.946000 0.020000
0.020000 0.946000 0.094667
0.020000 0.946000 0.169333
0.020000 0.946000 0.244000
0.020000 0.946000 0.318667
0.020000 0.946000 0.393333
0.020000 0.946000 0.468000
0.020000 0.946000 0.542667
0.020000 0.946000 0.617333
0.020000 0.946000 0.692000
0.020000 0.946000 0.766667
0.020000 0.946000 0.841333
0.020000 0.946000 0.916000
0.020000 0.946000 0.990667
0.020000 0.946000 1.000000
0.020000 0.946000 1.000000
0.020000 1.000000 0.020000
0.020000 1.000000 0.094667
0.020000 1.000000 0.169333
0.020000 1.000000 0.244000
0.020000 1.000000 0.318667
0.020000 1.000000 0.393333
0.020000 1.000000 0.468000
0.020000 1.000000 0.542667
0.020000 1.000000 0.617333
0.020000 1.000000 0.692000
0.020000 1.000000 0.766667
0.020000 1.000000 0.841333
0.020000 1.000000 0.916000
0.020000 1.000000 0.990667
0.020000 1.000000 1.000000
0.020000 1.000000 1.000000
0.020000 1.000000 0.020000
0.020000 1.000000 0.094667
0.020000 1.000000 0.169333
0.020000 1.000000 0.244000
0.020000 1.000000 0.318667
0.020000 1.000000 0.393333
0.020000 1.000000 0.468000
0.020000 1.000000 0.542667
0.020000 1.000000 0.617333
0.020000 1.000000 0.692000
0.020000 1.000000 0.766667
0.020000 1.000000 0.841333
0.020000 1.000000 0.916000
0.020000 1.000000 0.990667
0.020000 1.000000 1.000000
0.020000 1.000000 1.000000
0.094667 0.010000 0.020000
0.094667 0.010000 0.094667
0.094667 0.010000 0.169333
0.094667 0.010000 0.244000
0.094667 0.010000 0.318667
0.094667 0.010000 0.393333
0.094667 0.010000 0.468000
0.094667 0.010000 0.542667
0.094667 0.010000 0.617333
0.094667 0.010000 0.692000
0.094667 0.010000 0.766667
0.094667 0.010000 0.841333
0.094667 0.010000 0.916000
0.094667 0.010000 0.990667
0.094667 0.010000 1.000000
0.094667 0.010000 1.000000
0.094667 0.082000 0.020000
0.094667 0.082000 0.094667
0.094667 0.082000 0.169333
0.094667 0.082000 0.244000
0.094667 0.082000 0.318667
0.094667 0.082000 0.393333
0.094667 0.082000 0.468000
0.094667 0.082000 0.542667
0.094667 0.082000 0.617333
0.094667 0.082000 0.692000
0.094667 0.082000 0.766667
0.094667 0.082000 0.841333
0.094667 0.082000 0.916000
0.094667 0.082000 0.990667
0.094667 0.082000 1.000000
0.094667 0.082000 1.000000
0.094667 0.154000 0.020000
0.094667 0.154000 0.094667
0.094667 0.154000 0.169333
0.094667 0.154000 0.244000
0.094667 0.154000 0.318667
0.094667 0.154000 0.393333
0.094667 0.154000 0.468000
0.094667 0.154000 0.542667
0.094667 0.154000 0.617333
0.094667 0.154000 0.692000
0.094667 0.154000 0.766667
0.094667 0.154000 0.841333
0.094667 0.154000 0.916000
0.094667 0.154000 0.990667
0.094667 0.154000 1.000000
0.094667 0.154000 1.000000
0.094667 0.226000 0.020000
0.094667 0.226000 0.094667
0.094667 0.226000 0.169333
0.094667 0.226000 0.244000
0.094667 0.226000 0.318667
0.094667 0.226000 0.393333
0.094667 0.226000 0.468000
0.094667 0.226000 0.542667
0.094667 0.226000 0.617333
0.094667 0.226000 0.692000
0.094667 0.226000 0.766667
0.094667 0.226000 0.841333
0.094667 0.226000 0.916000
0.094667 0.226000 0.990667
0.094667 0.226000 1.000000
0.094667 0.226000 1.000000
0.094667 0.298000 0.020000
0.094667 0.298000 0.094667
0.094667 0.298000 0.169333
0.094667 0.298000 0.244000
0.094667 0.298000 0.318667
0.094667 0.298000 0.393333
0.094667 0.298000 0.468000
0.094667 0.298000 0.542667
0.094667 0.298000 0.617333
0.094667 0.298000 0.692000
0.094667 0.298000 0.766667
0.094667 0.298000 0.841333
0.094667 0.298000 0.916000
0.094667 0.298000 0.990667
0.094667 0.298000 1.000000
0.094667 0.298000 1.000000
0.094667 0.370000 0.020000
0.094667 0.370000 0.094667
0.094667 0.370000 0.169333
0.094667 0.370000 0.244000
0.094667 0.370000 0.318667
0.094667 0.370000 0.393333
0.094667 0.370000 0.468000
0.094667 0.370000 0.542667
0.094667 0.370000 0.617333
0.094667 0.370000 0.692000
0.094667 0.370000 0.766667
0.094667 0.370000 0.841333
0.094667 0.370000 0.916000
0.094667 0.370000 0.990667
0.094667 0.370000 1.000000
0.094667 0.370000 1.000000
0.094667 0.442000 0.020000
0.094667 0.442000 0.094667
0.094667 0.442000 0.169333
0.094667 0.442000 0.244000
0.094667 0.442000 0.318667
0.094667 0.442000 0.393333
0.094667 0.442000 0.468000
0.094667 0.442000 0.542667
0.094667 0.442000 0.617333
0.094667 0.442000 0.692000
0.094667 0.442000 0.766667
0.094667 0.442000 0.841333
0.094667 0.442000 0.916000
0.094667 0.442000 0.990667
0.094667 0.442000 1.000000
0.094667 0.442000 1.000000
0.094667 0.514000 0.020000
0.094667 0.514000 0.094667
0.094667 0.514000 0.169333
0.094667 0.514000 0.244000
0.094667 0.514000 0.318667
0.094667 0.514000 0.393333
0.094667 0.514000 0.468000
0.094667 0.514000 0.542667
0.094667 0.514000 0.617333
0.094667 0.514000 0.692000
0.094667 0.514000 0.766667
0.094667 0.514000 0.841333
0.094667 0.514000 0.916000
0.094667 0.514000 0.990667
0.094667 0.514000 1.000000
0.094667 0.514000 1.000000
0.094667 0.586000 0.020000
0.094667 0.586000 0.094667
0.094667 0.586000 0.169333
0.094667 0.586000 0.244000
0.094667 0.586000 0.318667
0.094667 0.586000 0.393333
0.094667 0.586000 0.468000
0.094667 0.586000 0.542667
0.094667 0.586000 0.617333
0.094667 0.586000 0.692000
0.094667 0.586000 0.766667
0.094667 0.586000 0.841333
0.094667 0.586000 0.916000
0.094667 0.586000 0.990667
0.094667 0.586000 1.000000
0.094667 0.586000 1.000000
0.094667 0.658000 0.020000
0.094667 0.658000 0.094667
0.094667 0.658000 0.169333
0.094667 0.658000 0.244000
0.094667 0.658000 0.318667
0.094667 0.658000 0.393333
0.094667 0.658000 0.468000
0.094667 0.658000 0.542667
0.094667 0.658000 0.617333
0.094667 0.658000 0.692000
0.094667 0.658000 0.766667
0.094667 0.658000 0.841333
0.094667 0.658000 0.916000
0.094667 0.658000 0.990667
0.094667 0.658000 1.000000
0.094667 0.658000 1.000000
0.094667 0.730000 0.020000
0.094667 0.730000 0.094667
0.094667 0.730000 0.169333
0.094667 0.730000 0.244000
0.094667 0.730000 0.318667
0.094667 0.730000 0.393333
0.094667 0.730000 0.468000
0.094667 0.730000 0.542667
0.094667 0.730000 0.617333
0.094667 0.730000 0.692000
0.094667 0.730000 0.766667
0.094667 0.730000 0.841333
0.094667 0.730000 0.916000
0.094667 0.730000 0.990667
0.094667 0.730000 1.000000
0.094667 0.730000 1.000000
0.094667 0.802000 0.020000
0.094667 0.802000 0.094667
0.094667 0.802000 0.169333
0.094667 0.802000 0.244000
0.094667 0.802000 0.318667
0.094667 0.802000 0.393333
0.094667 0.802000 0.468000
0.094667 0.802000 0.542667
0.094667 0.802000 0.617333
0.094667 0.802000 0.692000
0.094667 0.802000 0.766667
0.094667 0.802000 0.841333
0.094667 0.802000 0.916000
0.094667 0.802000 0.990667
0.094667 0.802000 1.000000
0.094667 0.802000 1.000000
0.094667 0.874000 0.020000
0.094667 0.874000 0.094667
0.094667 0.874000 0.169333
0.094667 0.874000 0.244000
0.094667 0.874000 0.318667
0.094667 0.874000 0.393333
0.094667 0.874000 0.468000
0.094667 0.874000 0.542667
0.094667 0.874000 0.617333
0.094667 0.874000 0.692000
0.094667 0.874000 0.766667
0.094667 0.874000 0.841333
0.094667 0.874000 0.916000
0.094667 0.874000 0.990667
0.094667 0.874000 1.000000
0.094667 0.874000 1.000000
0.094667 0.946000 0.020000
0.094667 0.946000 0.094667
0.094667 0.946000 0.169333
0.094667 0.946000 0.244000
0.094667 0.946000 0.318667
0.094667 0.946000 0.393333
0.094667 0.946000 0.468000
0.094667 0.946000 0.542667
0.094667 0.946000 0.617333
0.094667 0.946000 0.692000
0.094667 0.946000 0.766667
0.094667 0.946000 0.841333
0.094667 0.946000 0.916000
0.094667 0.946000 0.990667
0.094667 0.946000 1.000000
0.094667 0.946000 1.000000
0.094667 1.000000 0.020000
0.094667 1.000000 0.094667
0.094667 1.000000 0.169333
0.094667 1.000000 0.244000
0.094667 1.000000 0.318667
0.094667 1.000000 0.393333
0.094667 1.000000 0.468000
0.094667 1.000000 0.542667
0.094667 1.000000 0.617333
0.094667 1.000000 0.692000
0.094667 1.000000 0.766667
0.094667 1.000000 0.841333
0.094667 1.000000 0.916000
0.094667 1.000000 0.990667
0.094667 1.000000 1.000000
0.094667 1.000000 1.000000
0.094667 1.000000 0.020000
0.094667 1.000000 0.094667
0.094667 1.000000 0.169333
0.094667 1.000000 0.244000
0.094667 1.000000 0.318667
0.094667 1.000000 0.393333
0.094667 1.000000 0.468000
0.094667 1.000000 0.542667
0.094667 1.000000 0.617333
0.094667 1.000000 0.692000
0.094667 1.000000 0.766667
0.094667 1.000000 0.841333
0.094667 1.000000 0.916000
0.094667 1.000000 0.990667
0.094667 1.000000 1.000000
0.094667 1.000000 1.000000
0.169333 0.010000 0.020000
0.169333 0.010000 0.094667
0.169333 0.010000 0.169333
0.169333 0.010000 0.244000
0.169333 0.010000 0.318667
0.169333 0.010000 0.393333
0.169333 0.010000 0.468000
0.169333 0.010000 0.542667
0.169333 0.010000 0.617333
0.169333 0.010000 0.692000
0.169333 0.010000 0.766667
0.169333 0.010000 0.841333
0.169333 0.010000 0.916000
0.169333 0.010000 0.990667
0.169333 0.010000 1.000000
0.169333 0.010000 1.000000
0.169333 0.082000 0.020000
0.169333 0.082000 0.094667
0.169333 0.082000 0.169333
0.169333 0.082000 0.244000
0.169333 0.082000 0.318667
0.169333 0.082000 0.393333
0.169333 0.082000 0.468000
0.169333 0.082000 0.542667
0.169333 0.082000 0.617333
0.169333 0.082000 0.692000
0.169333 0.082000 0.766667
0.169333 0.082000 0.841333
0.169333 0.082000 0.916000
0.169333 0.082000 0.990667
0.169333 0.082000 1.000000
0.169333 0.082000 1.000000
0.169333 0.154000 0.020000
0.169333 0.154000 0.094667
0.169333 0.154000 0.169333
0.169333 0.154000 0.244000
0.169333 0.154000 0.318667
0.169333 0.154000 0.393333
0.169333 0.154000 0.468000
0.169333 0.154000 0.542667
0.169333 0.154000 0.617333
0.169333 0.154000 0.692000
0.169333 0.154000 0.766667
0.169333 0.154000 0.841333
0.169333 0.154000 0.916000
0.169333 0.154000 0.990667
0.169333 0.154000 1.000000
0.169333 0.154000 1.000000
0.169333 0.226000 0.020000
0.169333 0.226000 0.094667
0.169333 0.226000 0.169333
0.169333 0.226000 0.244000
0.169333 0.226000 0.318667
0.169333 0.226000 0.393333
0.169333 0.226000 0.468000
0.169333 0.226000 0.542667
0.169333 0.226000 0.617333
0.169333 0.226000 0.692000
0.169333 0.226000 0.766667
0.169333 0.226000 0.841333
0.169333 0.226000 0.916000
0.169333 0.226000 0.990667
0.169333 0.226000 1.000000
0.169333 0.226000 1.000000
0.169333 0.298000 0.020000
0.169333 0.298000 0.094667
0.169333 0.298000 0.169333
0.169333 0.298000 0.244000
0.169333 0.298000 0.318667
0.169333 0.298000 0.393333
0.169333 0.298000 0.468000
0.169333 0.298000 0.542667
0.169333 0.298000 0.617333
0.169333 0.298000 0.692000
0.169333 0.298000 0.766667
0.169333 0.298000 0.841333
0.169333 0.298000 0.916000
0.169333 0.298000 0.990667
0.169333 0.298000 1.000000
0.169333 0.298000 1.000000
0.169333 0.370000 0.020000
0.169333 0.370000 0.094667
0.169333 0.370000 0.169333
0.169333 0.370000 0.244000
0.169333 0.370000 0.318667
0.169333 0.370000 0.393333
0.169333 0.370000 0.468000
0.169333 0.370000 0.542667
0.169333 0.370000 0.617333
0.169333 0.370000 0.692000
0.169333 0.370000 0.766667
0.169333 0.370000 0.841333
0.169333 0.370000 0.916000
0.169333 0.370000 0.990667
0.169333 0.370000 1.000000
0.169333 0.370000 1.000000
0.169333 0.442000 0.020000
0.169333 0.442000 0.094667
0.169333 0.442000 0.169333
0.169333 0.442000 0.244000
0.169333 0.442000 0.318667
0.169333 0.442000 0.393333
0.169333 0.442000 0.468000
0.169333 0.442000 0.542667
0.169333 0.442000 0.617333
0.169333 0.442000 0.692000
0.169333 0.442000 0.766667
0.169333 0.442000 0.841333
0.169333 0.442000 0.916000
0.169333 0.442000 0.990667
0.169333 0.442000 1.000000
0.169333 0.442000 1.000000
0.169333 0.514000 0.020000
0.169333 0.514000 0.094667
0.169333 0.514000 0.169333
0.169333 0.514000 0.244000
0.169333 0.514000 0.318667
0.169333 0.514000 0.393333
0.169333 0.514000 0.468000
0.169333 0.514000 0.542667
0.169333 0.514000 0.617333
0.169333 0.514000 0.692000
0.169333 0.514000 0.766667
0.169333 0.514000 0.841333
0.169333 0.514000 0.916000
0.169333 0.514000 0.990667
0.169333 0.514000 1.000000
0.169333 0.514000 1.000000
0.169333 0.586000 0.020000
0.169333 0.586000 0.094667
0.169333 0.586000 0.169333
0.169333 0.586000 0.244000
0.169333 0.586000 0.318667
0.169333 0.586000 0.393333
0.169333 0.586000 0.468000
0.169333 0.586000 0.542667
0.169333 0.586000 0.617333
0.169333 0.586000 0.692000
0.169333 0.586000 0.766667
0.169333 0.586000 0.841333
0.169333 0.586000 0.916000
0.169333 0.586000 0.990667
0.169333 0.586000 1.000000
0.169333 0.586000 1.000000
0.169333 0.658000 0.020000
0.169333 0.658000 0.094667
0.169333 0.658000 0.169333
0.169333 0.658000 0.244000
0.169333 0.658000 0.318667
0.169333 0.658000 0.393333
0.169333 0.658000 0.468000
0.169333 0.658000 0.542667
0.169333 0.658000 0.617333
0.169333 0.658000 0.692000
0.169333 0.658000 0.766667
0.169333 0.658000 0.841333
0.169333 0.658000 0.916000
0.169333 0.658000 0.990667
0.169333 0.658000 1.000000
0.169333 0.658000 1.000000
0.169333 0.730000 0.020000
0.169333 0.730000 0.094667
0.169333 0.730000 0.169333
0.169333 0.730000 0.244000
0.169333 0.730000 0.318667
0.169333 0.730000 0.393333
0.169333 0.730000 0.468000
0.169333 0.730000 0.542667
0.169333 0.730000 0.617333
0.169333 0.730000 0.692000
0.169333 0.730000 0.766667
0.169333 0.730000 0.841333
0.169333 0.730000 0.916000
0.169333 0.730000 0.990667
0.169333 0.730000 1.000000
0.169333 0.730000 1.000000
0.169333 0.802000 0.020000
0.169333 0.802000 0.094667
0.169333 0.802000 0.169333
0.169333 0.802000 0.244000
0.169333 0.802000 0.318667
0.169333 0.802000 0.393333
0.169333 0.802000 0.468000
0.169333 0.802000 0.542667
0.169333 0.802000 0.617333
0.169333 0.802000 0.692000
0.169333 0.802000 0.766667
0.169333 0.802000 0.841333
0.169333 0.802000 0.916000
0.169333 0.802000 0.990667
0.169333 0.802000 1.000000
0.169333 0.802000 1.000000
0.169333 0.874000 0.020000
0.169333 0.874000 0.094667
0.169333 0.874000 0.169333
0.169333 0.874000 0.244000
0.169333 0.874000 0.318667
0.169333 0.874000 0.393333
0.169333 0.874000 0.468000
0.169333 0.874000 0.542667
0.169333 0.874000 0.617333
0.169333 0.874000 0.692000
0.169333 0.874000 0.766667
0.169333 0.874000 0.841333
0.169333 0.874000 0.916000
0.169333 0.874000 0.990667
0.169333 0.874000 1.000000
0.169333 0.874000 1.000000
0.169333 0.946000 0.020000
0.169333 0.946000 0.094667
0.169333 0.946000 0.169333
0.169333 0.946000 0.244000
0.169333 0.946000 0.318667
0.169333 0.946000 0.393333
0.169333 0.946000 0.468000
0.169333 0.946000 0.542667
0.169333 0.946000 0.617333
0.169333 0.946000 0.692000
0.169333 0.946000 0.766667
0.169333 0.946000 0.841333
0.169333 0.946000 0.916000
0.169333 0.946000 0.990667
0.169333 0.946000 1.000000
0.169333 0.946000 1.000000
0.169333 1.000000 0.020000
0.169333 1.000000 0.094667
0.169333 1.000000 0.169333
0.169333 1.000000 0.244000
0.169333 1.000000 0.318667
0.169333 1.000000 0.393333
0.169333 1.000000 0.468000
0.169333 1.000000 0.542667
0.169333 1.000000 0.617333
0.169333 1.000000 0.692000
0.169333 1.000000 0.766667
0.169333 1.000000 0.841333
0.169333 1.000000 0.916000
0.169333 1.000000 0.990667
0.169333 1.000000 1.000000
0.169333 1.000000 1.000000
0.169333 1.000000 0.020000
0.169333 1.000000 0.094667
0.169333 1.000000 0.169333
0.169333 1.000000 0.244000
0.169333 1.000000 0.318667
0.169333 1.000000 0.393333
0.169333 1.000000 0.468000
0.169333 1.000000 0.542667
0.169333 1.000000 0.617333
0.169333 1.000000 0.692000
0.169333 1.000000 0.766667
0.169333 1.000000 0.841333
0.169333 1.000000 0.916000
0.169333 1.000000 0.990667
0.169333 1.000000 1.000000
0.169333 1.000000 1.000000
0.244000 0.010000 0.020000
0.244000 0.010000 0.094667
0.244000 0.010000 0.169333
0.244000 0.010000 0.244000
0.244000 0.010000 0.318667
0.244000 0.010000 0.393333
0.244000 0.010000 0.468000
0.244000 0.010000 0.542667
0.244000 0.010000 0.617333
0.244000 0.010000 0.692000
0.244000 0.010000 0.766667
0.244000 0.010000 0.841333
0.244000 0.010000 0.916000
0.244000 0.010000 0.990667
0.244000 0.010000 1.000000
0.244000 0.010000 1.000000
0.244000 0.082000 0.020000
0.244000 0.082000 0.094667
0.244000 0.082000 0.169333
0.244000 0.082000 0.244000
0.244000 0.082000 0.318667
0.244000 0.082000 0.393333
0.244000 0.082000 0.468000
0.244000 0.082000 0.542667
0.244000 0.082000 0.617333
0.244000 0.082000 0.692000
0.244000 0.082000 0.766667
0.244000 0.082000 0.841333
0.244000 0.082000 0.916000
0.244000 0.082000 0.990667
0.244000 0.082000 1.000000
0.244000 0.082000 1.000000
0.244000 0.154000 0.020000
0.244000 0.154000 0.094667
0.244000 0.154000 0.169333
0.244000 0.154000 0.244000
0.244000 0.154000 0.318667
0.244000 0.154000 0.393333
0.244000 0.154000 0.468000
0.244000 0.154000 0.542667
0.244000 0.154000 0.617333
0.244000 0.154000 0.692000
0.244000 0.154000 0.766667
0.244000 0.154000 0.841333
0.244000 0.154000 0.916000
0.244000 0.154000 0.990667
0.244000 0.154000 1.000000
0.244000 0.154000 1.000000
0.244000 0.226000 0.020000
0.244000 0.226000 0.094667
0.244000 0.226000 0.169333
0.244000 0.226000 0.244000
0.244000 0.226000 0.318667
0.244000 0.226000 0.393333
0.244000 0.226000 0.468000
0.244000 0.226000 0.542667
0.244000 0.226000 0.617333
0.244000 0.226000 0.692000
0.244000 0.226000 0.766667
0.244000 0.226000 0.841333
0.244000 0.226000 0.916000
0.244000 0.226000 0.990667
0.244000 0.226000 1.000000
0.244000 0.226000 1.000000
0.244000 0.298000 0.020000
0.244000 0.298000 0.094667
0.244000 0.298000 0.169333
0.244000 0.298000 0.244000
0.244000 0.298000 0.318667
0.244000 0.298000 0.393333
0.244000 0.298000 0.468000
0.244000 0.298000 0.542667
0.244000 0.298000 0.617333
0.244000 0.298000 0.692000
0.244000 0.298000 0.766667
0.244000 0.298000 0.841333
0.244000 0.298000 0.916000
0.244000 0.298000 0.990667
0.244000 0.298000 1.000000
0.244000 0.298000 1.000000
0.244000 0.370000 0.020000
0.244000 0.370000 0.094667
0.244000 0.370000 0.169333
0.244000 0.370000 0.244000
0.244000 0.370000 0.318667
0.244000 0.370000 0.393333
0.244000 0.370000 0.468000
0.244000 0.370000 0.542667
0.244000 0.370000 0.617333
0.244000 0.370000 0.692000
0.244000 0.370000 0.766667
0.244000 0.370000 0.841333
0.244000 0.370000 0.916000
0.244000 0.370000 0.990667
0.244000 0.370000 1.000000
0.244000 0.370000 1.000000
0.244000 0.442000 0.020000
0.244000 0.442000 0.094667
0.244000 0.442000 0.169333
0.244000 0.442000 0.244000
0.244000 0.442000 0.318667
0.244000 0.442000 0.393333
0.244000 0.442000 0.468000
0.244000 0.442000 0.542667
0.244000 0.442000 0.617333
0.244000 0.442000 0.692000
0.244000 0.442000 0.766667
0.244000 0.442000 0.841333
0.244000 0.442000 0.916000
0.244000 0.442000 0.990667
0.244000 0.442000 1.000000
0.244000 0.442000 1.000000
0.244000 0.514000 0.020000
0.244000 0.514000 0.094667
0.244000 0.514000 0.169333
0.244000 0.514000 0.244000
0.244000 0.514000 0.318667
0.244000 0.514000 0.393333
0.244000 0.514000 0.468000
