app/src/main/assets/luts/teal_orange.cube
TITLE "teal_orange"
LUT_3D_SIZE 6
0.080000 0.000000 0.000000
0.080000 0.000000 0.124000
0.080000 0.000000 0.288000
0.080000 0.000000 0.452000
0.080000 0.000000 0.616000
0.080000 0.000000 0.780000
0.080000 0.196000 0.000000
0.080000 0.196000 0.124000
0.080000 0.196000 0.288000
0.080000 0.196000 0.452000
0.080000 0.196000 0.616000
0.080000 0.196000 0.780000
0.080000 0.392000 0.000000
0.080000 0.392000 0.124000
0.080000 0.392000 0.288000
0.080000 0.392000 0.452000
0.080000 0.392000 0.616000
0.080000 0.392000 0.780000
0.080000 0.588000 0.000000
0.080000 0.588000 0.124000
0.080000 0.588000 0.288000
0.080000 0.588000 0.452000
0.080000 0.588000 0.616000
0.080000 0.588000 0.780000
0.080000 0.784000 0.000000
0.080000 0.784000 0.124000
0.080000 0.784000 0.288000
0.080000 0.784000 0.452000
0.080000 0.784000 0.616000
0.080000 0.784000 0.780000
0.080000 0.980000 0.000000
0.080000 0.980000 0.124000
0.080000 0.980000 0.288000
0.080000 0.980000 0.452000
0.080000 0.980000 0.616000
0.080000 0.980000 0.780000
0.300000 0.000000 0.000000
0.300000 0.000000 0.124000
0.300000 0.000000 0.288000
0.300000 0.000000 0.452000
0.300000 0.000000 0.616000
0.300000 0.000000 0.780000
0.300000 0.196000 0.000000
0.300000 0.196000 0.124000
0.300000 0.196000 0.288000
0.300000 0.196000 0.452000
0.300000 0.196000 0.616000
0.300000 0.196000 0.780000
0.300000 0.392000 0.000000
0.300000 0.392000 0.124000
0.300000 0.392000 0.288000
0.300000 0.392000 0.452000
0.300000 0.392000 0.616000
0.300000 0.392000 0.780000
0.300000 0.588000 0.000000
0.300000 0.588000 0.124000
0.300000 0.588000 0.288000
0.300000 0.588000 0.452000
0.300000 0.588000 0.616000
0.300000 0.588000 0.780000
0.300000 0.784000 0.000000
0.300000 0.784000 0.124000
0.300000 0.784000 0.288000
0.300000 0.784000 0.452000
0.300000 0.784000 0.616000
0.300000 0.784000 0.780000
0.300000 0.980000 0.000000
0.300000 0.980000 0.124000
0.300000 0.980000 0.288000
0.300000 0.980000 0.452000
0.300000 0.980000 0.616000
0.300000 0.980000 0.780000
0.520000 0.000000 0.000000
0.520000 0.000000 0.124000
0.520000 0.000000 0.288000
0.520000 0.000000 0.452000
0.520000 0.000000 0.616000
0.520000 0.000000 0.780000
0.520000 0.196000 0.000000
0.520000 0.196000 0.124000
0.520000 0.196000 0.288000
0.520000 0.196000 0.452000
0.520000 0.196000 0.616000
0.520000 0.196000 0.780000
0.520000 0.392000 0.000000
0.520000 0.392000 0.124000
0.520000 0.392000 0.288000
0.520000 0.392000 0.452000
0.520000 0.392000 0.616000
0.520000 0.392000 0.780000
0.520000 0.588000 0.000000
0.520000 0.588000 0.124000
0.520000 0.588000 0.288000
0.520000 0.588000 0.452000
0.520000 0.588000 0.616000
0.520000 0.588000 0.780000
0.520000 0.784000 0.000000
0.520000 0.784000 0.124000
0.520000 0.784000 0.288000
0.520000 0.784000 0.452000
0.520000 0.784000 0.616000
0.520000 0.784000 0.780000
0.520000 0.980000 0.000000
0.520000 0.980000 0.124000
0.520000 0.980000 0.288000
0.520000 0.980000 0.452000
0.520000 0.980000 0.616000
0.520000 0.980000 0.780000
0.740000 0.000000 0.000000
0.740000 0.000000 0.124000
0.740000 0.000000 0.288000
0.740000 0.000000 0.452000
0.740000 0.000000 0.616000
0.740000 0.000000 0.780000
0.740000 0.196000 0.000000
0.740000 0.196000 0.124000
0.740000 0.196000 0.288000
0.740000 0.196000 0.452000
0.740000 0.196000 0.616000
0.740000 0.196000 0.780000
0.740000 0.392000 0.000000
0.740000 0.392000 0.124000
0.740000 0.392000 0.288000
0.740000 0.392000 0.452000
0.740000 0.392000 0.616000
0.740000 0.392000 0.780000
0.740000 0.588000 0.000000
0.740000 0.588000 0.124000
0.740000 0.588000 0.288000
0.740000 0.588000 0.452000
0.740000 0.588000 0.616000
0.740000 0.588000 0.780000
0.740000 0.784000 0.000000
0.740000 0.784000 0.124000
0.740000 0.784000 0.288000
0.740000 0.784000 0.452000
0.740000 0.784000 0.616000
0.740000 0.784000 0.780000
0.740000 0.980000 0.000000
0.740000 0.980000 0.124000
0.740000 0.980000 0.288000
0.740000 0.980000 0.452000
0.740000 0.980000 0.616000
0.740000 0.980000 0.780000
0.960000 0.000000 0.000000
0.960000 0.000000 0.124000
0.960000 0.000000 0.288000
0.960000 0.000000 0.452000
0.960000 0.000000 0.616000
0.960000 0.000000 0.780000
0.960000 0.196000 0.000000
0.960000 0.196000 0.124000
0.960000 0.196000 0.288000
0.960000 0.196000 0.452000
0.960000 0.196000 0.616000
0.960000 0.196000 0.780000
0.960000 0.392000 0.000000
0.960000 0.392000 0.124000
0.960000 0.392000 0.288000
0.960000 0.392000 0.452000
0.960000 0.392000 0.616000
0.960000 0.392000 0.780000
0.960000 0.588000 0.000000
0.960000 0.588000 0.124000
0.960000 0.588000 0.288000
0.960000 0.588000 0.452000
0.960000 0.588000 0.616000
0.960000 0.588000 0.780000
0.960000 0.784000 0.000000
0.960000 0.784000 0.124000
0.960000 0.784000 0.288000
0.960000 0.784000 0.452000
0.960000 0.784000 0.616000
0.960000 0.784000 0.780000
0.960000 0.980000 0.000000
0.960000 0.980000 0.124000
0.960000 0.980000 0.288000
0.960000 0.980000 0.452000
0.960000 0.980000 0.616000
0.960000 0.980000 0.780000
1.000000 0.000000 0.000000
1.000000 0.000000 0.124000
1.000000 0.000000 0.288000
1.000000 0.000000 0.452000
1.000000 0.000000 0.616000
1.000000 0.000000 0.780000
1.000000 0.196000 0.000000
1.000000 0.196000 0.124000
1.000000 0.196000 0.288000
1.000000 0.196000 0.452000
1.000000 0.196000 0.616000
1.000000 0.196000 0.780000
1.000000 0.392000 0.000000
1.000000 0.392000 0.124000
1.000000 0.392000 0.288000
1.000000 0.392000 0.452000
1.000000 0.392000 0.616000
1.000000 0.392000 0.780000
1.000000 0.588000 0.000000
1.000000 0.588000 0.124000
1.000000 0.588000 0.288000
1.000000 0.588000 0.452000
1.000000 0.588000 0.616000
1.000000 0.588000 0.780000
1.000000 0.784000 0.000000
1.000000 0.784000 0.124000
1.000000 0.784000 0.288000
1.000000 0.784000 0.452000
1.000000 0.784000 0.616000
1.000000 0.784000 0.780000
1.000000 0.980000 0.000000
1.000000 0.980000 0.124000
1.000000 0.980000 0.288000
1.000000 0.980000 0.452000
1.000000 0.980000 0.616000
1.000000 0.980000 0.780000
