app/src/main/assets/luts/teal_orange.cube
TITLE "teal_orange"
LUT_3D_SIZE 16
0.080000 0.000000 0.000000
0.080000 0.000000 0.014667
0.080000 0.000000 0.069333
0.080000 0.000000 0.124000
0.080000 0.000000 0.178667
0.080000 0.000000 0.233333
0.080000 0.000000 0.288000
0.080000 0.000000 0.342667
0.080000 0.000000 0.397333
0.080000 0.000000 0.452000
0.080000 0.000000 0.506667
0.080000 0.000000 0.561333
0.080000 0.000000 0.616000
0.080000 0.000000 0.670667
0.080000 0.000000 0.725333
0.080000 0.000000 0.780000
0.080000 0.065333 0.000000
0.080000 0.065333 0.014667
0.080000 0.065333 0.069333
0.080000 0.065333 0.124000
0.080000 0.065333 0.178667
0.080000 0.065333 0.233333
0.080000 0.065333 0.288000
0.080000 0.065333 0.342667
0.080000 0.065333 0.397333
0.080000 0.065333 0.452000
0.080000 0.065333 0.506667
0.080000 0.065333 0.561333
0.080000 0.065333 0.616000
0.080000 0.065333 0.670667
0.080000 0.065333 0.725333
0.080000 0.065333 0.780000
0.080000 0.130667 0.000000
0.080000 0.130667 0.014667
0.080000 0.130667 0.069333
0.080000 0.130667 0.124000
0.080000 0.130667 0.178667
0.080000 0.130667 0.233333
0.080000 0.130667 0.288000
0.080000 0.130667 0.342667
0.080000 0.130667 0.397333
0.080000 0.130667 0.452000
0.080000 0.130667 0.506667
0.080000 0.130667 0.561333
0.080000 0.130667 0.616000
0.080000 0.130667 0.670667
0.080000 0.130667 0.725333
0.080000 0.130667 0.780000
0.080000 0.196000 0.000000
0.080000 0.196000 0.014667
0.080000 0.196000 0.069333
0.080000 0.196000 0.124000
0.080000 0.196000 0.178667
0.080000 0.196000 0.233333
0.080000 0.196000 0.288000
0.080000 0.196000 0.342667
0.080000 0.196000 0.397333
0.080000 0.196000 0.452000
0.080000 0.196000 0.506667
0.080000 0.196000 0.561333
0.080000 0.196000 0.616000
0.080000 0.196000 0.670667
0.080000 0.196000 0.725333
0.080000 0.196000 0.780000
0.080000 0.261333 0.000000
0.080000 0.261333 0.014667
0.080000 0.261333 0.069333
0.080000 0.261333 0.124000
0.080000 0.261333 0.178667
0.080000 0.261333 0.233333
0.080000 0.261333 0.288000
0.080000 0.261333 0.342667
0.080000 0.261333 0.397333
0.080000 0.261333 0.452000
0.080000 0.261333 0.506667
0.080000 0.261333 0.561333
0.080000 0.261333 0.616000
0.080000 0.261333 0.670667
0.080000 0.261333 0.725333
0.080000 0.261333 0.780000
0.080000 0.326667 0.000000
0.080000 0.326667 0.014667
0.080000 0.326667 0.069333
0.080000 0.326667 0.124000
0.080000 0.326667 0.178667
0.080000 0.326667 0.233333
0.080000 0.326667 0.288000
0.080000 0.326667 0.342667
0.080000 0.326667 0.397333
0.080000 0.326667 0.452000
0.080000 0.326667 0.506667
0.080000 0.326667 0.561333
0.080000 0.326667 0.616000
0.080000 0.326667 0.670667
0.080000 0.326667 0.725333
0.080000 0.326667 0.780000
0.080000 0.392000 0.000000
0.080000 0.392000 0.014667
0.080000 0.392000 0.069333
0.080000 0.392000 0.124000
0.080000 0.392000 0.178667
0.080000 0.392000 0.233333
0.080000 0.392000 0.288000
0.080000 0.392000 0.342667
0.080000 0.392000 0.397333
0.080000 0.392000 0.452000
0.080000 0.392000 0.506667
0.080000 0.392000 0.561333
0.080000 0.392000 0.616000
0.080000 0.392000 0.670667
0.080000 0.392000 0.725333
0.080000 0.392000 0.780000
0.080000 0.457333 0.000000
0.080000 0.457333 0.014667
0.080000 0.457333 0.069333
0.080000 0.457333 0.124000
0.080000 0.457333 0.178667
0.080000 0.457333 0.233333
0.080000 0.457333 0.288000
0.080000 0.457333 0.342667
0.080000 0.457333 0.397333
0.080000 0.457333 0.452000
0.080000 0.457333 0.506667
0.080000 0.457333 0.561333
0.080000 0.457333 0.616000
0.080000 0.457333 0.670667
0.080000 0.457333 0.725333
0.080000 0.457333 0.780000
0.080000 0.522667 0.000000
0.080000 0.522667 0.014667
0.080000 0.522667 0.069333
0.080000 0.522667 0.124000
0.080000 0.522667 0.178667
0.080000 0.522667 0.233333
0.080000 0.522667 0.288000
0.080000 0.522667 0.342667
0.080000 0.522667 0.397333
0.080000 0.522667 0.452000
0.080000 0.522667 0.506667
0.080000 0.522667 0.561333
0.080000 0.522667 0.616000
0.080000 0.522667 0.670667
0.080000 0.522667 0.725333
0.080000 0.522667 0.780000
0.080000 0.588000 0.000000
0.080000 0.588000 0.014667
0.080000 0.588000 0.069333
0.080000 0.588000 0.124000
0.080000 0.588000 0.178667
0.080000 0.588000 0.233333
0.080000 0.588000 0.288000
0.080000 0.588000 0.342667
0.080000 0.588000 0.397333
0.080000 0.588000 0.452000
0.080000 0.588000 0.506667
0.080000 0.588000 0.561333
0.080000 0.588000 0.616000
0.080000 0.588000 0.670667
0.080000 0.588000 0.725333
0.080000 0.588000 0.780000
0.080000 0.653333 0.000000
0.080000 0.653333 0.014667
0.080000 0.653333 0.069333
0.080000 0.653333 0.124000
0.080000 0.653333 0.178667
0.080000 0.653333 0.233333
0.080000 0.653333 0.288000
0.080000 0.653333 0.342667
0.080000 0.653333 0.397333
0.080000 0.653333 0.452000
0.080000 0.653333 0.506667
0.080000 0.653333 0.561333
0.080000 0.653333 0.616000
0.080000 0.653333 0.670667
0.080000 0.653333 0.725333
0.080000 0.653333 0.780000
0.080000 0.718667 0.000000
0.080000 0.718667 0.014667
0.080000 0.718667 0.069333
0.080000 0.718667 0.124000
0.080000 0.718667 0.178667
0.080000 0.718667 0.233333
0.080000 0.718667 0.288000
0.080000 0.718667 0.342667
0.080000 0.718667 0.397333
0.080000 0.718667 0.452000
0.080000 0.718667 0.506667
0.080000 0.718667 0.561333
0.080000 0.718667 0.616000
0.080000 0.718667 0.670667
0.080000 0.718667 0.725333
0.080000 0.718667 0.780000
0.080000 0.784000 0.000000
0.080000 0.784000 0.014667
0.080000 0.784000 0.069333
0.080000 0.784000 0.124000
0.080000 0.784000 0.178667
0.080000 0.784000 0.233333
0.080000 0.784000 0.288000
0.080000 0.784000 0.342667
0.080000 0.784000 0.397333
0.080000 0.784000 0.452000
0.080000 0.784000 0.506667
0.080000 0.784000 0.561333
0.080000 0.784000 0.616000
0.080000 0.784000 0.670667
0.080000 0.784000 0.725333
0.080000 0.784000 0.780000
0.080000 0.849333 0.000000
0.080000 0.849333 0.014667
0.080000 0.849333 0.069333
0.080000 0.849333 0.124000
0.080000 0.849333 0.178667
0.080000 0.849333 0.233333
0.080000 0.849333 0.288000
0.080000 0.849333 0.342667
0.080000 0.849333 0.397333
0.080000 0.849333 0.452000
0.080000 0.849333 0.506667
0.080000 0.849333 0.561333
0.080000 0.849333 0.616000
0.080000 0.849333 0.670667
0.080000 0.849333 0.725333
0.080000 0.849333 0.780000
0.080000 0.914667 0.000000
0.080000 0.914667 0.014667
0.080000 0.914667 0.069333
0.080000 0.914667 0.124000
0.080000 0.914667 0.178667
0.080000 0.914667 0.233333
0.080000 0.914667 0.288000
0.080000 0.914667 0.342667
0.080000 0.914667 0.397333
0.080000 0.914667 0.452000
0.080000 0.914667 0.506667
0.080000 0.914667 0.561333
0.080000 0.914667 0.616000
0.080000 0.914667 0.670667
0.080000 0.914667 0.725333
0.080000 0.914667 0.780000
0.080000 0.980000 0.000000
0.080000 0.980000 0.014667
0.080000 0.980000 0.069333
0.080000 0.980000 0.124000
0.080000 0.980000 0.178667
0.080000 0.980000 0.233333
0.080000 0.980000 0.288000
0.080000 0.980000 0.342667
0.080000 0.980000 0.397333
0.080000 0.980000 0.452000
0.080000 0.980000 0.506667
0.080000 0.980000 0.561333
0.080000 0.980000 0.616000
0.080000 0.980000 0.670667
0.080000 0.980000 0.725333
0.080000 0.980000 0.780000
0.153333 0.000000 0.000000
0.153333 0.000000 0.014667
0.153333 0.000000 0.069333
0.153333 0.000000 0.124000
0.153333 0.000000 0.178667
0.153333 0.000000 0.233333
0.153333 0.000000 0.288000
0.153333 0.000000 0.342667
0.153333 0.000000 0.397333
0.153333 0.000000 0.452000
0.153333 0.000000 0.506667
0.153333 0.000000 0.561333
0.153333 0.000000 0.616000
0.153333 0.000000 0.670667
0.153333 0.000000 0.725333
0.153333 0.000000 0.780000
0.153333 0.065333 0.000000
0.153333 0.065333 0.014667
0.153333 0.065333 0.069333
0.153333 0.065333 0.124000
0.153333 0.065333 0.178667
0.153333 0.065333 0.233333
0.153333 0.065333 0.288000
0.153333 0.065333 0.342667
0.153333 0.065333 0.397333
0.153333 0.065333 0.452000
0.153333 0.065333 0.506667
0.153333 0.065333 0.561333
0.153333 0.065333 0.616000
0.153333 0.065333 0.670667
0.153333 0.065333 0.725333
0.153333 0.065333 0.780000
0.153333 0.130667 0.000000
0.153333 0.130667 0.014667
0.153333 0.130667 0.069333
0.153333 0.130667 0.124000
0.153333 0.130667 0.178667
0.153333 0.130667 0.233333
0.153333 0.130667 0.288000
0.153333 0.130667 0.342667
0.153333 0.130667 0.397333
0.153333 0.130667 0.452000
0.153333 0.130667 0.506667
0.153333 0.130667 0.561333
0.153333 0.130667 0.616000
0.153333 0.130667 0.670667
0.153333 0.130667 0.725333
0.153333 0.130667 0.780000
0.153333 0.196000 0.000000
0.153333 0.196000 0.014667
0.153333 0.196000 0.069333
0.153333 0.196000 0.124000
0.153333 0.196000 0.178667
0.153333 0.196000 0.233333
0.153333 0.196000 0.288000
0.153333 0.196000 0.342667
0.153333 0.196000 0.397333
0.153333 0.196000 0.452000
0.153333 0.196000 0.506667
0.153333 0.196000 0.561333
0.153333 0.196000 0.616000
0.153333 0.196000 0.670667
0.153333 0.196000 0.725333
0.153333 0.196000 0.780000
0.153333 0.261333 0.000000
0.153333 0.261333 0.014667
0.153333 0.261333 0.069333
0.153333 0.261333 0.124000
0.153333 0.261333 0.178667
0.153333 0.261333 0.233333
0.153333 0.261333 0.288000
0.153333 0.261333 0.342667
0.153333 0.261333 0.397333
0.153333 0.261333 0.452000
0.153333 0.261333 0.506667
0.153333 0.261333 0.561333
0.153333 0.261333 0.616000
0.153333 0.261333 0.670667
0.153333 0.261333 0.725333
0.153333 0.261333 0.780000
0.153333 0.326667 0.000000
0.153333 0.326667 0.014667
0.153333 0.326667 0.069333
0.153333 0.326667 0.124000
0.153333 0.326667 0.178667
0.153333 0.326667 0.233333
0.153333 0.326667 0.288000
0.153333 0.326667 0.342667
0.153333 0.326667 0.397333
0.153333 0.326667 0.452000
0.153333 0.326667 0.506667
0.153333 0.326667 0.561333
0.153333 0.326667 0.616000
0.153333 0.326667 0.670667
0.153333 0.326667 0.725333
0.153333 0.326667 0.780000
0.153333 0.392000 0.000000
0.153333 0.392000 0.014667
0.153333 0.392000 0.069333
0.153333 0.392000 0.124000
0.153333 0.392000 0.178667
0.153333 0.392000 0.233333
0.153333 0.392000 0.288000
0.153333 0.392000 0.342667
0.153333 0.392000 0.397333
0.153333 0.392000 0.452000
0.153333 0.392000 0.506667
0.153333 0.392000 0.561333
0.153333 0.392000 0.616000
0.153333 0.392000 0.670667
0.153333 0.392000 0.725333
0.153333 0.392000 0.780000
0.153333 0.457333 0.000000
0.153333 0.457333 0.014667
0.153333 0.457333 0.069333
0.153333 0.457333 0.124000
0.153333 0.457333 0.178667
0.153333 0.457333 0.233333
0.153333 0.457333 0.288000
0.153333 0.457333 0.342667
0.153333 0.457333 0.397333
0.153333 0.457333 0.452000
0.153333 0.457333 0.506667
0.153333 0.457333 0.561333
0.153333 0.457333 0.616000
0.153333 0.457333 0.670667
0.153333 0.457333 0.725333
0.153333 0.457333 0.780000
0.153333 0.522667 0.000000
0.153333 0.522667 0.014667
0.153333 0.522667 0.069333
0.153333 0.522667 0.124000
0.153333 0.522667 0.178667
0.153333 0.522667 0.233333
0.153333 0.522667 0.288000
0.153333 0.522667 0.342667
0.153333 0.522667 0.397333
0.153333 0.522667 0.452000
0.153333 0.522667 0.506667
0.153333 0.522667 0.561333
0.153333 0.522667 0.616000
0.153333 0.522667 0.670667
0.153333 0.522667 0.725333
0.153333 0.522667 0.780000
0.153333 0.588000 0.000000
0.153333 0.588000 0.014667
0.153333 0.588000 0.069333
0.153333 0.588000 0.124000
0.153333 0.588000 0.178667
0.153333 0.588000 0.233333
0.153333 0.588000 0.288000
0.153333 0.588000 0.342667
0.153333 0.588000 0.397333
0.153333 0.588000 0.452000
0.153333 0.588000 0.506667
0.153333 0.588000 0.561333
0.153333 0.588000 0.616000
0.153333 0.588000 0.670667
0.153333 0.588000 0.725333
0.153333 0.588000 0.780000
0.153333 0.653333 0.000000
0.153333 0.653333 0.014667
0.153333 0.653333 0.069333
0.153333 0.653333 0.124000
0.153333 0.653333 0.178667
0.153333 0.653333 0.233333
0.153333 0.653333 0.288000
0.153333 0.653333 0.342667
0.153333 0.653333 0.397333
0.153333 0.653333 0.452000
0.153333 0.653333 0.506667
0.153333 0.653333 0.561333
0.153333 0.653333 0.616000
0.153333 0.653333 0.670667
0.153333 0.653333 0.725333
0.153333 0.653333 0.780000
0.153333 0.718667 0.000000
0.153333 0.718667 0.014667
0.153333 0.718667 0.069333
0.153333 0.718667 0.124000
0.153333 0.718667 0.178667
0.153333 0.718667 0.233333
0.153333 0.718667 0.288000
0.153333 0.718667 0.342667
0.153333 0.718667 0.397333
0.153333 0.718667 0.452000
0.153333 0.718667 0.506667
0.153333 0.718667 0.561333
0.153333 0.718667 0.616000
0.153333 0.718667 0.670667
0.153333 0.718667 0.725333
0.153333 0.718667 0.780000
0.153333 0.784000 0.000000
0.153333 0.784000 0.014667
0.153333 0.784000 0.069333
0.153333 0.784000 0.124000
0.153333 0.784000 0.178667
0.153333 0.784000 0.233333
0.153333 0.784000 0.288000
0.153333 0.784000 0.342667
0.153333 0.784000 0.397333
0.153333 0.784000 0.452000
0.153333 0.784000 0.506667
0.153333 0.784000 0.561333
0.153333 0.784000 0.616000
0.153333 0.784000 0.670667
0.153333 0.784000 0.725333
0.153333 0.784000 0.780000
0.153333 0.849333 0.000000
0.153333 0.849333 0.014667
0.153333 0.849333 0.069333
0.153333 0.849333 0.124000
0.153333 0.849333 0.178667
0.153333 0.849333 0.233333
0.153333 0.849333 0.288000
0.153333 0.849333 0.342667
0.153333 0.849333 0.397333
0.153333 0.849333 0.452000
0.153333 0.849333 0.506667
0.153333 0.849333 0.561333
0.153333 0.849333 0.616000
0.153333 0.849333 0.670667
0.153333 0.849333 0.725333
0.153333 0.849333 0.780000
0.153333 0.914667 0.000000
0.153333 0.914667 0.014667
0.153333 0.914667 0.069333
0.153333 0.914667 0.124000
0.153333 0.914667 0.178667
0.153333 0.914667 0.233333
0.153333 0.914667 0.288000
0.153333 0.914667 0.342667
0.153333 0.914667 0.397333
0.153333 0.914667 0.452000
0.153333 0.914667 0.506667
0.153333 0.914667 0.561333
0.153333 0.914667 0.616000
0.153333 0.914667 0.670667
0.153333 0.914667 0.725333
0.153333 0.914667 0.780000
0.153333 0.980000 0.000000
0.153333 0.980000 0.014667
0.153333 0.980000 0.069333
0.153333 0.980000 0.124000
0.153333 0.980000 0.178667
0.153333 0.980000 0.233333
0.153333 0.980000 0.288000
0.153333 0.980000 0.342667
0.153333 0.980000 0.397333
0.153333 0.980000 0.452000
0.153333 0.980000 0.506667
0.153333 0.980000 0.561333
0.153333 0.980000 0.616000
0.153333 0.980000 0.670667
0.153333 0.980000 0.725333
0.153333 0.980000 0.780000
0.226667 0.000000 0.000000
0.226667 0.000000 0.014667
0.226667 0.000000 0.069333
0.226667 0.000000 0.124000
0.226667 0.000000 0.178667
0.226667 0.000000 0.233333
0.226667 0.000000 0.288000
0.226667 0.000000 0.342667
0.226667 0.000000 0.397333
0.226667 0.000000 0.452000
0.226667 0.000000 0.506667
0.226667 0.000000 0.561333
0.226667 0.000000 0.616000
0.226667 0.000000 0.670667
0.226667 0.000000 0.725333
0.226667 0.000000 0.780000
0.226667 0.065333 0.000000
0.226667 0.065333 0.014667
0.226667 0.065333 0.069333
0.226667 0.065333 0.124000
0.226667 0.065333 0.178667
0.226667 0.065333 0.233333
0.226667 0.065333 0.288000
0.226667 0.065333 0.342667
0.226667 0.065333 0.397333
0.226667 0.065333 0.452000
0.226667 0.065333 0.506667
0.226667 0.065333 0.561333
0.226667 0.065333 0.616000
0.226667 0.065333 0.670667
0.226667 0.065333 0.725333
0.226667 0.065333 0.780000
0.226667 0.130667 0.000000
0.226667 0.130667 0.014667
0.226667 0.130667 0.069333
0.226667 0.130667 0.124000
0.226667 0.130667 0.178667
0.226667 0.130667 0.233333
0.226667 0.130667 0.288000
0.226667 0.130667 0.342667
0.226667 0.130667 0.397333
0.226667 0.130667 0.452000
0.226667 0.130667 0.506667
0.226667 0.130667 0.561333
0.226667 0.130667 0.616000
0.226667 0.130667 0.670667
0.226667 0.130667 0.725333
0.226667 0.130667 0.780000
0.226667 0.196000 0.000000
0.226667 0.196000 0.014667
0.226667 0.196000 0.069333
0.226667 0.196000 0.124000
0.226667 0.196000 0.178667
0.226667 0.196000 0.233333
0.226667 0.196000 0.288000
0.226667 0.196000 0.342667
0.226667 0.196000 0.397333
0.226667 0.196000 0.452000
0.226667 0.196000 0.506667
0.226667 0.196000 0.561333
0.226667 0.196000 0.616000
0.226667 0.196000 0.670667
0.226667 0.196000 0.725333
0.226667 0.196000 0.780000
0.226667 0.261333 0.000000
0.226667 0.261333 0.014667
0.226667 0.261333 0.069333
0.226667 0.261333 0.124000
0.226667 0.261333 0.178667
0.226667 0.261333 0.233333
0.226667 0.261333 0.288000
0.226667 0.261333 0.342667
0.226667 0.261333 0.397333
0.226667 0.261333 0.452000
0.226667 0.261333 0.506667
0.226667 0.261333 0.561333
0.226667 0.261333 0.616000
0.226667 0.261333 0.670667
0.226667 0.261333 0.725333
0.226667 0.261333 0.780000
0.226667 0.326667 0.000000
0.226667 0.326667 0.014667
0.226667 0.326667 0.069333
0.226667 0.326667 0.124000
0.226667 0.326667 0.178667
0.226667 0.326667 0.233333
0.226667 0.326667 0.288000
0.226667 0.326667 0.342667
0.226667 0.326667 0.397333
0.226667 0.326667 0.452000
0.226667 0.326667 0.506667
0.226667 0.326667 0.561333
0.226667 0.326667 0.616000
0.226667 0.326667 0.670667
0.226667 0.326667 0.725333
0.226667 0.326667 0.780000
0.226667 0.392000 0.000000
0.226667 0.392000 0.014667
0.226667 0.392000 0.069333
0.226667 0.392000 0.124000
0.226667 0.392000 0.178667
0.226667 0.392000 0.233333
0.226667 0.392000 0.288000
0.226667 0.392000 0.342667
0.226667 0.392000 0.397333
0.226667 0.392000 0.452000
0.226667 0.392000 0.506667
0.226667 0.392000 0.561333
0.226667 0.392000 0.616000
0.226667 0.392000 0.670667
0.226667 0.392000 0.725333
0.226667 0.392000 0.780000
0.226667 0.457333 0.000000
0.226667 0.457333 0.014667
0.226667 0.457333 0.069333
0.226667 0.457333 0.124000
0.226667 0.457333 0.178667
0.226667 0.457333 0.233333
0.226667 0.457333 0.288000
0.226667 0.457333 0.342667
0.226667 0.457333 0.397333
0.226667 0.457333 0.452000
0.226667 0.457333 0.506667
0.226667 0.457333 0.561333
0.226667 0.457333 0.616000
0.226667 0.457333 0.670667
0.226667 0.457333 0.725333
0.226667 0.457333 0.780000
0.226667 0.522667 0.000000
0.226667 0.522667 0.014667
0.226667 0.522667 0.069333
0.226667 0.522667 0.124000
0.226667 0.522667 0.178667
0.226667 0.522667 0.233333
0.226667 0.522667 0.288000
0.226667 0.522667 0.342667
0.226667 0.522667 0.397333
0.226667 0.522667 0.452000
0.226667 0.522667 0.506667
0.226667 0.522667 0.561333
0.226667 0.522667 0.616000
0.226667 0.522667 0.670667
0.226667 0.522667 0.725333
0.226667 0.522667 0.780000
0.226667 0.588000 0.000000
0.226667 0.588000 0.014667
0.226667 0.588000 0.069333
0.226667 0.588000 0.124000
0.226667 0.588000 0.178667
0.226667 0.588000 0.233333
0.226667 0.588000 0.288000
0.226667 0.588000 0.342667
0.226667 0.588000 0.397333
0.226667 0.588000 0.452000
0.226667 0.588000 0.506667
0.226667 0.588000 0.561333
0.226667 0.588000 0.616000
0.226667 0.588000 0.670667
0.226667 0.588000 0.725333
0.226667 0.588000 0.780000
0.226667 0.653333 0.000000
0.226667 0.653333 0.014667
0.226667 0.653333 0.069333
0.226667 0.653333 0.124000
0.226667 0.653333 0.178667
0.226667 0.653333 0.233333
0.226667 0.653333 0.288000
0.226667 0.653333 0.342667
0.226667 0.653333 0.397333
0.226667 0.653333 0.452000
0.226667 0.653333 0.506667
0.226667 0.653333 0.561333
0.226667 0.653333 0.616000
0.226667 0.653333 0.670667
0.226667 0.653333 0.725333
0.226667 0.653333 0.780000
0.226667 0.718667 0.000000
0.226667 0.718667 0.014667
0.226667 0.718667 0.069333
0.226667 0.718667 0.124000
0.226667 0.718667 0.178667
0.226667 0.718667 0.233333
0.226667 0.718667 0.288000
0.226667 0.718667 0.342667
0.226667 0.718667 0.397333
0.226667 0.718667 0.452000
0.226667 0.718667 0.506667
0.226667 0.718667 0.561333
0.226667 0.718667 0.616000
0.226667 0.718667 0.670667
0.226667 0.718667 0.725333
0.226667 0.718667 0.780000
0.226667 0.784000 0.000000
0.226667 0.784000 0.014667
0.226667 0.784000 0.069333
0.226667 0.784000 0.124000
0.226667 0.784000 0.178667
0.226667 0.784000 0.233333
0.226667 0.784000 0.288000
0.226667 0.784000 0.342667
0.226667 0.784000 0.397333
0.226667 0.784000 0.452000
0.226667 0.784000 0.506667
0.226667 0.784000 0.561333
0.226667 0.784000 0.616000
0.226667 0.784000 0.670667
0.226667 0.784000 0.725333
0.226667 0.784000 0.780000
0.226667 0.849333 0.000000
0.226667 0.849333 0.014667
0.226667 0.849333 0.069333
0.226667 0.849333 0.124000
0.226667 0.849333 0.178667
0.226667 0.849333 0.233333
0.226667 0.849333 0.288000
0.226667 0.849333 0.342667
0.226667 0.849333 0.397333
0.226667 0.849333 0.452000
0.226667 0.849333 0.506667
0.226667 0.849333 0.561333
0.226667 0.849333 0.616000
0.226667 0.849333 0.670667
0.226667 0.849333 0.725333
0.226667 0.849333 0.780000
0.226667 0.914667 0.000000
0.226667 0.914667 0.014667
0.226667 0.914667 0.069333
0.226667 0.914667 0.124000
0.226667 0.914667 0.178667
0.226667 0.914667 0.233333
0.226667 0.914667 0.288000
0.226667 0.914667 0.342667
0.226667 0.914667 0.397333
0.226667 0.914667 0.452000
0.226667 0.914667 0.506667
0.226667 0.914667 0.561333
0.226667 0.914667 0.616000
0.226667 0.914667 0.670667
0.226667 0.914667 0.725333
0.226667 0.914667 0.780000
0.226667 0.980000 0.000000
0.226667 0.980000 0.014667
0.226667 0.980000 0.069333
0.226667 0.980000 0.124000
0.226667 0.980000 0.178667
0.226667 0.980000 0.233333
0.226667 0.980000 0.288000
0.226667 0.980000 0.342667
0.226667 0.980000 0.397333
0.226667 0.980000 0.452000
0.226667 0.980000 0.506667
0.226667 0.980000 0.561333
0.226667 0.980000 0.616000
0.226667 0.980000 0.670667
0.226667 0.980000 0.725333
0.226667 0.980000 0.780000
0.300000 0.000000 0.000000
0.300000 0.000000 0.014667
0.300000 0.000000 0.069333
0.300000 0.000000 0.124000
0.300000 0.000000 0.178667
0.300000 0.000000 0.233333
0.300000 0.000000 0.288000
0.300000 0.000000 0.342667
0.300000 0.000000 0.397333
0.300000 0.000000 0.452000
0.300000 0.000000 0.506667
0.300000 0.000000 0.561333
0.300000 0.000000 0.616000
0.300000 0.000000 0.670667
0.300000 0.000000 0.725333
0.300000 0.000000 0.780000
0.300000 0.065333 0.000000
0.300000 0.065333 0.014667
0.300000 0.065333 0.069333
0.300000 0.065333 0.124000
0.300000 0.065333 0.178667
0.300000 0.065333 0.233333
0.300000 0.065333 0.288000
0.300000 0.065333 0.342667
0.300000 0.065333 0.397333
0.300000 0.065333 0.452000
0.300000 0.065333 0.506667
0.300000 0.065333 0.561333
0.300000 0.065333 0.616000
0.300000 0.065333 0.670667
0.300000 0.065333 0.725333
0.300000 0.065333 0.780000
0.300000 0.130667 0.000000
0.300000 0.130667 0.014667
0.300000 0.130667 0.069333
0.300000 0.130667 0.124000
0.300000 0.130667 0.178667
0.300000 0.130667 0.233333
0.300000 0.130667 0.288000
0.300000 0.130667 0.342667
0.300000 0.130667 0.397333
0.300000 0.130667 0.452000
0.300000 0.130667 0.506667
0.300000 0.130667 0.561333
0.300000 0.130667 0.616000
0.300000 0.130667 0.670667
0.300000 0.130667 0.725333
0.300000 0.130667 0.780000
0.300000 0.196000 0.000000
0.300000 0.196000 0.014667
0.300000 0.196000 0.069333
0.300000 0.196000 0.124000
0.300000 0.196000 0.178667
0.300000 0.196000 0.233333
0.300000 0.196000 0.288000
0.300000 0.196000 0.342667
0.300000 0.196000 0.397333
0.300000 0.196000 0.452000
0.300000 0.196000 0.506667
0.300000 0.196000 0.561333
0.300000 0.196000 0.616000
0.300000 0.196000 0.670667
0.300000 0.196000 0.725333
0.300000 0.196000 0.780000
0.300000 0.261333 0.000000
0.300000 0.261333 0.014667
0.300000 0.261333 0.069333
0.300000 0.261333 0.124000
0.300000 0.261333 0.178667
0.300000 0.261333 0.233333
0.300000 0.261333 0.288000
0.300000 0.261333 0.342667
0.300000 0.261333 0.397333
0.300000 0.261333 0.452000
0.300000 0.261333 0.506667
0.300000 0.261333 0.561333
0.300000 0.261333 0.616000
0.300000 0.261333 0.670667
0.300000 0.261333 0.725333
0.300000 0.261333 0.780000
0.300000 0.326667 0.000000
0.300000 0.326667 0.014667
0.300000 0.326667 0.069333
0.300000 0.326667 0.124000
0.300000 0.326667 0.178667
0.300000 0.326667 0.233333
0.300000 0.326667 0.288000
0.300000 0.326667 0.342667
0.300000 0.326667 0.397333
0.300000 0.326667 0.452000
0.300000 0.326667 0.506667
0.300000 0.326667 0.561333
0.300000 0.326667 0.616000
0.300000 0.326667 0.670667
0.300000 0.326667 0.725333
0.300000 0.326667 0.780000
0.300000 0.392000 0.000000
0.300000 0.392000 0.014667
0.300000 0.392000 0.069333
0.300000 0.392000 0.124000
0.300000 0.392000 0.178667
0.300000 0.392000 0.233333
0.300000 0.392000 0.288000
0.300000 0.392000 0.342667
0.300000 0.392000 0.397333
0.300000 0.392000 0.452000
0.300000 0.392000 0.506667
0.300000 0.392000 0.561333
0.300000 0.392000 0.616000
0.300000 0.392000 0.670667
0.300000 0.392000 0.725333
0.300000 0.392000 0.780000
0.300000 0.457333 0.000000
0.300000 0.457333 0.014667
0.300000 0.457333 0.069333
0.300000 0.457333 0.124000
0.300000 0.457333 0.178667
0.300000 0.457333 0.233333
0.300000 0.457333 0.288000
