app/src/main/assets/luts/warm.cube
TITLE "warm"
LUT_3D_SIZE 16
0.080000 0.020000 0.000000
0.080000 0.020000 0.000000
0.080000 0.020000 0.053333
0.080000 0.020000 0.120000
0.080000 0.020000 0.186667
0.080000 0.020000 0.253333
0.080000 0.020000 0.320000
0.080000 0.020000 0.386667
0.080000 0.020000 0.453333
0.080000 0.020000 0.520000
0.080000 0.020000 0.586667
0.080000 0.020000 0.653333
0.080000 0.020000 0.720000
0.080000 0.020000 0.786667
0.080000 0.020000 0.853333
0.080000 0.020000 0.920000
0.080000 0.086667 0.000000
0.080000 0.086667 0.000000
0.080000 0.086667 0.053333
0.080000 0.086667 0.120000
0.080000 0.086667 0.186667
0.080000 0.086667 0.253333
0.080000 0.086667 0.320000
0.080000 0.086667 0.386667
0.080000 0.086667 0.453333
0.080000 0.086667 0.520000
0.080000 0.086667 0.586667
0.080000 0.086667 0.653333
0.080000 0.086667 0.720000
0.080000 0.086667 0.786667
0.080000 0.086667 0.853333
0.080000 0.086667 0.920000
0.080000 0.153333 0.000000
0.080000 0.153333 0.000000
0.080000 0.153333 0.053333
0.080000 0.153333 0.120000
0.080000 0.153333 0.186667
0.080000 0.153333 0.253333
0.080000 0.153333 0.320000
0.080000 0.153333 0.386667
0.080000 0.153333 0.453333
0.080000 0.153333 0.520000
0.080000 0.153333 0.586667
0.080000 0.153333 0.653333
0.080000 0.153333 0.720000
0.080000 0.153333 0.786667
0.080000 0.153333 0.853333
0.080000 0.153333 0.920000
0.080000 0.220000 0.000000
0.080000 0.220000 0.000000
0.080000 0.220000 0.053333
0.080000 0.220000 0.120000
0.080000 0.220000 0.186667
0.080000 0.220000 0.253333
0.080000 0.220000 0.320000
0.080000 0.220000 0.386667
0.080000 0.220000 0.453333
0.080000 0.220000 0.520000
0.080000 0.220000 0.586667
0.080000 0.220000 0.653333
0.080000 0.220000 0.720000
0.080000 0.220000 0.786667
0.080000 0.220000 0.853333
0.080000 0.220000 0.920000
0.080000 0.286667 0.000000
0.080000 0.286667 0.000000
0.080000 0.286667 0.053333
0.080000 0.286667 0.120000
0.080000 0.286667 0.186667
0.080000 0.286667 0.253333
0.080000 0.286667 0.320000
0.080000 0.286667 0.386667
0.080000 0.286667 0.453333
0.080000 0.286667 0.520000
0.080000 0.286667 0.586667
0.080000 0.286667 0.653333
0.080000 0.286667 0.720000
0.080000 0.286667 0.786667
0.080000 0.286667 0.853333
0.080000 0.286667 0.920000
0.080000 0.353333 0.000000
0.080000 0.353333 0.000000
0.080000 0.353333 0.053333
0.080000 0.353333 0.120000
0.080000 0.353333 0.186667
0.080000 0.353333 0.253333
0.080000 0.353333 0.320000
0.080000 0.353333 0.386667
0.080000 0.353333 0.453333
0.080000 0.353333 0.520000
0.080000 0.353333 0.586667
0.080000 0.353333 0.653333
0.080000 0.353333 0.720000
0.080000 0.353333 0.786667
0.080000 0.353333 0.853333
0.080000 0.353333 0.920000
0.080000 0.420000 0.000000
0.080000 0.420000 0.000000
0.080000 0.420000 0.053333
0.080000 0.420000 0.120000
0.080000 0.420000 0.186667
0.080000 0.420000 0.253333
0.080000 0.420000 0.320000
0.080000 0.420000 0.386667
0.080000 0.420000 0.453333
0.080000 0.420000 0.520000
0.080000 0.420000 0.586667
0.080000 0.420000 0.653333
0.080000 0.420000 0.720000
0.080000 0.420000 0.786667
0.080000 0.420000 0.853333
0.080000 0.420000 0.920000
0.080000 0.486667 0.000000
0.080000 0.486667 0.000000
0.080000 0.486667 0.053333
0.080000 0.486667 0.120000
0.080000 0.486667 0.186667
0.080000 0.486667 0.253333
0.080000 0.486667 0.320000
0.080000 0.486667 0.386667
0.080000 0.486667 0.453333
0.080000 0.486667 0.520000
0.080000 0.486667 0.586667
0.080000 0.486667 0.653333
0.080000 0.486667 0.720000
0.080000 0.486667 0.786667
0.080000 0.486667 0.853333
0.080000 0.486667 0.920000
0.080000 0.553333 0.000000
0.080000 0.553333 0.000000
0.080000 0.553333 0.053333
0.080000 0.553333 0.120000
0.080000 0.553333 0.186667
0.080000 0.553333 0.253333
0.080000 0.553333 0.320000
0.080000 0.553333 0.386667
0.080000 0.553333 0.453333
0.080000 0.553333 0.520000
0.080000 0.553333 0.586667
0.080000 0.553333 0.653333
0.080000 0.553333 0.720000
0.080000 0.553333 0.786667
0.080000 0.553333 0.853333
0.080000 0.553333 0.920000
0.080000 0.620000 0.000000
0.080000 0.620000 0.000000
0.080000 0.620000 0.053333
0.080000 0.620000 0.120000
0.080000 0.620000 0.186667
0.080000 0.620000 0.253333
0.080000 0.620000 0.320000
0.080000 0.620000 0.386667
0.080000 0.620000 0.453333
0.080000 0.620000 0.520000
0.080000 0.620000 0.586667
0.080000 0.620000 0.653333
0.080000 0.620000 0.720000
0.080000 0.620000 0.786667
0.080000 0.620000 0.853333
0.080000 0.620000 0.920000
0.080000 0.686667 0.000000
0.080000 0.686667 0.000000
0.080000 0.686667 0.053333
0.080000 0.686667 0.120000
0.080000 0.686667 0.186667
0.080000 0.686667 0.253333
0.080000 0.686667 0.320000
0.080000 0.686667 0.386667
0.080000 0.686667 0.453333
0.080000 0.686667 0.520000
0.080000 0.686667 0.586667
0.080000 0.686667 0.653333
0.080000 0.686667 0.720000
0.080000 0.686667 0.786667
0.080000 0.686667 0.853333
0.080000 0.686667 0.920000
0.080000 0.753333 0.000000
0.080000 0.753333 0.000000
0.080000 0.753333 0.053333
0.080000 0.753333 0.120000
0.080000 0.753333 0.186667
0.080000 0.753333 0.253333
0.080000 0.753333 0.320000
0.080000 0.753333 0.386667
0.080000 0.753333 0.453333
0.080000 0.753333 0.520000
0.080000 0.753333 0.586667
0.080000 0.753333 0.653333
0.080000 0.753333 0.720000
0.080000 0.753333 0.786667
0.080000 0.753333 0.853333
0.080000 0.753333 0.920000
0.080000 0.820000 0.000000
0.080000 0.820000 0.000000
0.080000 0.820000 0.053333
0.080000 0.820000 0.120000
0.080000 0.820000 0.186667
0.080000 0.820000 0.253333
0.080000 0.820000 0.320000
0.080000 0.820000 0.386667
0.080000 0.820000 0.453333
0.080000 0.820000 0.520000
0.080000 0.820000 0.586667
0.080000 0.820000 0.653333
0.080000 0.820000 0.720000
0.080000 0.820000 0.786667
0.080000 0.820000 0.853333
0.080000 0.820000 0.920000
0.080000 0.886667 0.000000
0.080000 0.886667 0.000000
0.080000 0.886667 0.053333
0.080000 0.886667 0.120000
0.080000 0.886667 0.186667
0.080000 0.886667 0.253333
0.080000 0.886667 0.320000
0.080000 0.886667 0.386667
0.080000 0.886667 0.453333
0.080000 0.886667 0.520000
0.080000 0.886667 0.586667
0.080000 0.886667 0.653333
0.080000 0.886667 0.720000
0.080000 0.886667 0.786667
0.080000 0.886667 0.853333
0.080000 0.886667 0.920000
0.080000 0.953333 0.000000
0.080000 0.953333 0.000000
0.080000 0.953333 0.053333
0.080000 0.953333 0.120000
0.080000 0.953333 0.186667
0.080000 0.953333 0.253333
0.080000 0.953333 0.320000
0.080000 0.953333 0.386667
0.080000 0.953333 0.453333
0.080000 0.953333 0.520000
0.080000 0.953333 0.586667
0.080000 0.953333 0.653333
0.080000 0.953333 0.720000
0.080000 0.953333 0.786667
0.080000 0.953333 0.853333
0.080000 0.953333 0.920000
0.080000 1.000000 0.000000
0.080000 1.000000 0.000000
0.080000 1.000000 0.053333
0.080000 1.000000 0.120000
0.080000 1.000000 0.186667
0.080000 1.000000 0.253333
0.080000 1.000000 0.320000
0.080000 1.000000 0.386667
0.080000 1.000000 0.453333
0.080000 1.000000 0.520000
0.080000 1.000000 0.586667
0.080000 1.000000 0.653333
0.080000 1.000000 0.720000
0.080000 1.000000 0.786667
0.080000 1.000000 0.853333
0.080000 1.000000 0.920000
0.146667 0.020000 0.000000
0.146667 0.020000 0.000000
0.146667 0.020000 0.053333
0.146667 0.020000 0.120000
0.146667 0.020000 0.186667
0.146667 0.020000 0.253333
0.146667 0.020000 0.320000
0.146667 0.020000 0.386667
0.146667 0.020000 0.453333
0.146667 0.020000 0.520000
0.146667 0.020000 0.586667
0.146667 0.020000 0.653333
0.146667 0.020000 0.720000
0.146667 0.020000 0.786667
0.146667 0.020000 0.853333
0.146667 0.020000 0.920000
0.146667 0.086667 0.000000
0.146667 0.086667 0.000000
0.146667 0.086667 0.053333
0.146667 0.086667 0.120000
0.146667 0.086667 0.186667
0.146667 0.086667 0.253333
0.146667 0.086667 0.320000
0.146667 0.086667 0.386667
0.146667 0.086667 0.453333
0.146667 0.086667 0.520000
0.146667 0.086667 0.586667
0.146667 0.086667 0.653333
0.146667 0.086667 0.720000
0.146667 0.086667 0.786667
0.146667 0.086667 0.853333
0.146667 0.086667 0.920000
0.146667 0.153333 0.000000
0.146667 0.153333 0.000000
0.146667 0.153333 0.053333
0.146667 0.153333 0.120000
0.146667 0.153333 0.186667
0.146667 0.153333 0.253333
0.146667 0.153333 0.320000
0.146667 0.153333 0.386667
0.146667 0.153333 0.453333
0.146667 0.153333 0.520000
0.146667 0.153333 0.586667
0.146667 0.153333 0.653333
0.146667 0.153333 0.720000
0.146667 0.153333 0.786667
0.146667 0.153333 0.853333
0.146667 0.153333 0.920000
0.146667 0.220000 0.000000
0.146667 0.220000 0.000000
0.146667 0.220000 0.053333
0.146667 0.220000 0.120000
0.146667 0.220000 0.186667
0.146667 0.220000 0.253333
0.146667 0.220000 0.320000
0.146667 0.220000 0.386667
0.146667 0.220000 0.453333
0.146667 0.220000 0.520000
0.146667 0.220000 0.586667
0.146667 0.220000 0.653333
0.146667 0.220000 0.720000
0.146667 0.220000 0.786667
0.146667 0.220000 0.853333
0.146667 0.220000 0.920000
0.146667 0.286667 0.000000
0.146667 0.286667 0.000000
0.146667 0.286667 0.053333
0.146667 0.286667 0.120000
0.146667 0.286667 0.186667
0.146667 0.286667 0.253333
0.146667 0.286667 0.320000
0.146667 0.286667 0.386667
0.146667 0.286667 0.453333
0.146667 0.286667 0.520000
0.146667 0.286667 0.586667
0.146667 0.286667 0.653333
0.146667 0.286667 0.720000
0.146667 0.286667 0.786667
0.146667 0.286667 0.853333
0.146667 0.286667 0.920000
0.146667 0.353333 0.000000
0.146667 0.353333 0.000000
0.146667 0.353333 0.053333
0.146667 0.353333 0.120000
0.146667 0.353333 0.186667
0.146667 0.353333 0.253333
0.146667 0.353333 0.320000
0.146667 0.353333 0.386667
0.146667 0.353333 0.453333
0.146667 0.353333 0.520000
0.146667 0.353333 0.586667
0.146667 0.353333 0.653333
0.146667 0.353333 0.720000
0.146667 0.353333 0.786667
0.146667 0.353333 0.853333
0.146667 0.353333 0.920000
0.146667 0.420000 0.000000
0.146667 0.420000 0.000000
0.146667 0.420000 0.053333
0.146667 0.420000 0.120000
0.146667 0.420000 0.186667
0.146667 0.420000 0.253333
0.146667 0.420000 0.320000
0.146667 0.420000 0.386667
0.146667 0.420000 0.453333
0.146667 0.420000 0.520000
0.146667 0.420000 0.586667
0.146667 0.420000 0.653333
0.146667 0.420000 0.720000
0.146667 0.420000 0.786667
0.146667 0.420000 0.853333
0.146667 0.420000 0.920000
0.146667 0.486667 0.000000
0.146667 0.486667 0.000000
0.146667 0.486667 0.053333
0.146667 0.486667 0.120000
0.146667 0.486667 0.186667
0.146667 0.486667 0.253333
0.146667 0.486667 0.320000
0.146667 0.486667 0.386667
0.146667 0.486667 0.453333
0.146667 0.486667 0.520000
0.146667 0.486667 0.586667
0.146667 0.486667 0.653333
0.146667 0.486667 0.720000
0.146667 0.486667 0.786667
0.146667 0.486667 0.853333
0.146667 0.486667 0.920000
0.146667 0.553333 0.000000
0.146667 0.553333 0.000000
0.146667 0.553333 0.053333
0.146667 0.553333 0.120000
0.146667 0.553333 0.186667
0.146667 0.553333 0.253333
0.146667 0.553333 0.320000
0.146667 0.553333 0.386667
0.146667 0.553333 0.453333
0.146667 0.553333 0.520000
0.146667 0.553333 0.586667
0.146667 0.553333 0.653333
0.146667 0.553333 0.720000
0.146667 0.553333 0.786667
0.146667 0.553333 0.853333
0.146667 0.553333 0.920000
0.146667 0.620000 0.000000
0.146667 0.620000 0.000000
0.146667 0.620000 0.053333
0.146667 0.620000 0.120000
0.146667 0.620000 0.186667
0.146667 0.620000 0.253333
0.146667 0.620000 0.320000
0.146667 0.620000 0.386667
0.146667 0.620000 0.453333
0.146667 0.620000 0.520000
0.146667 0.620000 0.586667
0.146667 0.620000 0.653333
0.146667 0.620000 0.720000
0.146667 0.620000 0.786667
0.146667 0.620000 0.853333
0.146667 0.620000 0.920000
0.146667 0.686667 0.000000
0.146667 0.686667 0.000000
0.146667 0.686667 0.053333
0.146667 0.686667 0.120000
0.146667 0.686667 0.186667
0.146667 0.686667 0.253333
0.146667 0.686667 0.320000
0.146667 0.686667 0.386667
0.146667 0.686667 0.453333
0.146667 0.686667 0.520000
0.146667 0.686667 0.586667
0.146667 0.686667 0.653333
0.146667 0.686667 0.720000
0.146667 0.686667 0.786667
0.146667 0.686667 0.853333
0.146667 0.686667 0.920000
0.146667 0.753333 0.000000
0.146667 0.753333 0.000000
0.146667 0.753333 0.053333
0.146667 0.753333 0.120000
0.146667 0.753333 0.186667
0.146667 0.753333 0.253333
0.146667 0.753333 0.320000
0.146667 0.753333 0.386667
0.146667 0.753333 0.453333
0.146667 0.753333 0.520000
0.146667 0.753333 0.586667
0.146667 0.753333 0.653333
0.146667 0.753333 0.720000
0.146667 0.753333 0.786667
0.146667 0.753333 0.853333
0.146667 0.753333 0.920000
0.146667 0.820000 0.000000
0.146667 0.820000 0.000000
0.146667 0.820000 0.053333
0.146667 0.820000 0.120000
0.146667 0.820000 0.186667
0.146667 0.820000 0.253333
0.146667 0.820000 0.320000
0.146667 0.820000 0.386667
0.146667 0.820000 0.453333
0.146667 0.820000 0.520000
0.146667 0.820000 0.586667
0.146667 0.820000 0.653333
0.146667 0.820000 0.720000
0.146667 0.820000 0.786667
0.146667 0.820000 0.853333
0.146667 0.820000 0.920000
0.146667 0.886667 0.000000
0.146667 0.886667 0.000000
0.146667 0.886667 0.053333
0.146667 0.886667 0.120000
0.146667 0.886667 0.186667
0.146667 0.886667 0.253333
0.146667 0.886667 0.320000
0.146667 0.886667 0.386667
0.146667 0.886667 0.453333
0.146667 0.886667 0.520000
0.146667 0.886667 0.586667
0.146667 0.886667 0.653333
0.146667 0.886667 0.720000
0.146667 0.886667 0.786667
0.146667 0.886667 0.853333
0.146667 0.886667 0.920000
0.146667 0.953333 0.000000
0.146667 0.953333 0.000000
0.146667 0.953333 0.053333
0.146667 0.953333 0.120000
0.146667 0.953333 0.186667
0.146667 0.953333 0.253333
0.146667 0.953333 0.320000
0.146667 0.953333 0.386667
0.146667 0.953333 0.453333
0.146667 0.953333 0.520000
0.146667 0.953333 0.586667
0.146667 0.953333 0.653333
0.146667 0.953333 0.720000
0.146667 0.953333 0.786667
0.146667 0.953333 0.853333
0.146667 0.953333 0.920000
0.146667 1.000000 0.000000
0.146667 1.000000 0.000000
0.146667 1.000000 0.053333
0.146667 1.000000 0.120000
0.146667 1.000000 0.186667
0.146667 1.000000 0.253333
0.146667 1.000000 0.320000
0.146667 1.000000 0.386667
0.146667 1.000000 0.453333
0.146667 1.000000 0.520000
0.146667 1.000000 0.586667
0.146667 1.000000 0.653333
0.146667 1.000000 0.720000
0.146667 1.000000 0.786667
0.146667 1.000000 0.853333
0.146667 1.000000 0.920000
0.213333 0.020000 0.000000
0.213333 0.020000 0.000000
0.213333 0.020000 0.053333
0.213333 0.020000 0.120000
0.213333 0.020000 0.186667
0.213333 0.020000 0.253333
0.213333 0.020000 0.320000
0.213333 0.020000 0.386667
0.213333 0.020000 0.453333
0.213333 0.020000 0.520000
0.213333 0.020000 0.586667
0.213333 0.020000 0.653333
0.213333 0.020000 0.720000
0.213333 0.020000 0.786667
0.213333 0.020000 0.853333
0.213333 0.020000 0.920000
0.213333 0.086667 0.000000
0.213333 0.086667 0.000000
0.213333 0.086667 0.053333
0.213333 0.086667 0.120000
0.213333 0.086667 0.186667
0.213333 0.086667 0.253333
0.213333 0.086667 0.320000
0.213333 0.086667 0.386667
0.213333 0.086667 0.453333
0.213333 0.086667 0.520000
0.213333 0.086667 0.586667
0.213333 0.086667 0.653333
0.213333 0.086667 0.720000
0.213333 0.086667 0.786667
0.213333 0.086667 0.853333
0.213333 0.086667 0.920000
0.213333 0.153333 0.000000
0.213333 0.153333 0.000000
0.213333 0.153333 0.053333
0.213333 0.153333 0.120000
0.213333 0.153333 0.186667
0.213333 0.153333 0.253333
0.213333 0.153333 0.320000
0.213333 0.153333 0.386667
0.213333 0.153333 0.453333
0.213333 0.153333 0.520000
0.213333 0.153333 0.586667
0.213333 0.153333 0.653333
0.213333 0.153333 0.720000
0.213333 0.153333 0.786667
0.213333 0.153333 0.853333
0.213333 0.153333 0.920000
0.213333 0.220000 0.000000
0.213333 0.220000 0.000000
0.213333 0.220000 0.053333
0.213333 0.220000 0.120000
0.213333 0.220000 0.186667
0.213333 0.220000 0.253333
0.213333 0.220000 0.320000
0.213333 0.220000 0.386667
0.213333 0.220000 0.453333
0.213333 0.220000 0.520000
0.213333 0.220000 0.586667
0.213333 0.220000 0.653333
0.213333 0.220000 0.720000
0.213333 0.220000 0.786667
0.213333 0.220000 0.853333
0.213333 0.220000 0.920000
0.213333 0.286667 0.000000
0.213333 0.286667 0.000000
0.213333 0.286667 0.053333
0.213333 0.286667 0.120000
0.213333 0.286667 0.186667
0.213333 0.286667 0.253333
0.213333 0.286667 0.320000
0.213333 0.286667 0.386667
0.213333 0.286667 0.453333
0.213333 0.286667 0.520000
0.213333 0.286667 0.586667
0.213333 0.286667 0.653333
0.213333 0.286667 0.720000
0.213333 0.286667 0.786667
0.213333 0.286667 0.853333
0.213333 0.286667 0.920000
0.213333 0.353333 0.000000
0.213333 0.353333 0.000000
0.213333 0.353333 0.053333
0.213333 0.353333 0.120000
0.213333 0.353333 0.186667
0.213333 0.353333 0.253333
0.213333 0.353333 0.320000
0.213333 0.353333 0.386667
0.213333 0.353333 0.453333
0.213333 0.353333 0.520000
0.213333 0.353333 0.586667
0.213333 0.353333 0.653333
0.213333 0.353333 0.720000
0.213333 0.353333 0.786667
0.213333 0.353333 0.853333
0.213333 0.353333 0.920000
0.213333 0.420000 0.000000
0.213333 0.420000 0.000000
0.213333 0.420000 0.053333
0.213333 0.420000 0.120000
0.213333 0.420000 0.186667
0.213333 0.420000 0.253333
0.213333 0.420000 0.320000
0.213333 0.420000 0.386667
0.213333 0.420000 0.453333
0.213333 0.420000 0.520000
0.213333 0.420000 0.586667
0.213333 0.420000 0.653333
0.213333 0.420000 0.720000
0.213333 0.420000 0.786667
0.213333 0.420000 0.853333
0.213333 0.420000 0.920000
0.213333 0.486667 0.000000
0.213333 0.486667 0.000000
0.213333 0.486667 0.053333
0.213333 0.486667 0.120000
0.213333 0.486667 0.186667
0.213333 0.486667 0.253333
0.213333 0.486667 0.320000
0.213333 0.486667 0.386667
0.213333 0.486667 0.453333
0.213333 0.486667 0.520000
0.213333 0.486667 0.586667
0.213333 0.486667 0.653333
0.213333 0.486667 0.720000
0.213333 0.486667 0.786667
0.213333 0.486667 0.853333
0.213333 0.486667 0.920000
0.213333 0.553333 0.000000
0.213333 0.553333 0.000000
0.213333 0.553333 0.053333
0.213333 0.553333 0.120000
0.213333 0.553333 0.186667
0.213333 0.553333 0.253333
0.213333 0.553333 0.320000
0.213333 0.553333 0.386667
0.213333 0.553333 0.453333
0.213333 0.553333 0.520000
0.213333 0.553333 0.586667
0.213333 0.553333 0.653333
0.213333 0.553333 0.720000
0.213333 0.553333 0.786667
0.213333 0.553333 0.853333
0.213333 0.553333 0.920000
0.213333 0.620000 0.000000
0.213333 0.620000 0.000000
0.213333 0.620000 0.053333
0.213333 0.620000 0.120000
0.213333 0.620000 0.186667
0.213333 0.620000 0.253333
0.213333 0.620000 0.320000
0.213333 0.620000 0.386667
0.213333 0.620000 0.453333
0.213333 0.620000 0.520000
0.213333 0.620000 0.586667
0.213333 0.620000 0.653333
0.213333 0.620000 0.720000
0.213333 0.620000 0.786667
0.213333 0.620000 0.853333
0.213333 0.620000 0.920000
0.213333 0.686667 0.000000
0.213333 0.686667 0.000000
0.213333 0.686667 0.053333
0.213333 0.686667 0.120000
0.213333 0.686667 0.186667
0.213333 0.686667 0.253333
0.213333 0.686667 0.320000
0.213333 0.686667 0.386667
0.213333 0.686667 0.453333
0.213333 0.686667 0.520000
0.213333 0.686667 0.586667
0.213333 0.686667 0.653333
0.213333 0.686667 0.720000
0.213333 0.686667 0.786667
0.213333 0.686667 0.853333
0.213333 0.686667 0.920000
0.213333 0.753333 0.000000
0.213333 0.753333 0.000000
0.213333 0.753333 0.053333
0.213333 0.753333 0.120000
0.213333 0.753333 0.186667
0.213333 0.753333 0.253333
0.213333 0.753333 0.320000
0.213333 0.753333 0.386667
0.213333 0.753333 0.453333
0.213333 0.753333 0.520000
0.213333 0.753333 0.586667
0.213333 0.753333 0.653333
0.213333 0.753333 0.720000
0.213333 0.753333 0.786667
0.213333 0.753333 0.853333
0.213333 0.753333 0.920000
0.213333 0.820000 0.000000
0.213333 0.820000 0.000000
0.213333 0.820000 0.053333
0.213333 0.820000 0.120000
0.213333 0.820000 0.186667
0.213333 0.820000 0.253333
0.213333 0.820000 0.320000
0.213333 0.820000 0.386667
0.213333 0.820000 0.453333
0.213333 0.820000 0.520000
0.213333 0.820000 0.586667
0.213333 0.820000 0.653333
0.213333 0.820000 0.720000
0.213333 0.820000 0.786667
0.213333 0.820000 0.853333
0.213333 0.820000 0.920000
0.213333 0.886667 0.000000
0.213333 0.886667 0.000000
0.213333 0.886667 0.053333
0.213333 0.886667 0.120000
0.213333 0.886667 0.186667
0.213333 0.886667 0.253333
0.213333 0.886667 0.320000
0.213333 0.886667 0.386667
0.213333 0.886667 0.453333
0.213333 0.886667 0.520000
0.213333 0.886667 0.586667
0.213333 0.886667 0.653333
0.213333 0.886667 0.720000
0.213333 0.886667 0.786667
0.213333 0.886667 0.853333
0.213333 0.886667 0.920000
0.213333 0.953333 0.000000
0.213333 0.953333 0.000000
0.213333 0.953333 0.053333
0.213333 0.953333 0.120000
0.213333 0.953333 0.186667
0.213333 0.953333 0.253333
0.213333 0.953333 0.320000
0.213333 0.953333 0.386667
0.213333 0.953333 0.453333
0.213333 0.953333 0.520000
0.213333 0.953333 0.586667
0.213333 0.953333 0.653333
0.213333 0.953333 0.720000
0.213333 0.953333 0.786667
0.213333 0.953333 0.853333
0.213333 0.953333 0.920000
0.213333 1.000000 0.000000
0.213333 1.000000 0.000000
0.213333 1.000000 0.053333
0.213333 1.000000 0.120000
0.213333 1.000000 0.186667
0.213333 1.000000 0.253333
0.213333 1.000000 0.320000
0.213333 1.000000 0.386667
0.213333 1.000000 0.453333
0.213333 1.000000 0.520000
0.213333 1.000000 0.586667
0.213333 1.000000 0.653333
0.213333 1.000000 0.720000
0.213333 1.000000 0.786667
0.213333 1.000000 0.853333
0.213333 1.000000 0.920000
0.280000 0.020000 0.000000
0.280000 0.020000 0.000000
0.280000 0.020000 0.053333
0.280000 0.020000 0.120000
0.280000 0.020000 0.186667
0.280000 0.020000 0.253333
0.280000 0.020000 0.320000
0.280000 0.020000 0.386667
0.280000 0.020000 0.453333
0.280000 0.020000 0.520000
0.280000 0.020000 0.586667
0.280000 0.020000 0.653333
0.280000 0.020000 0.720000
0.280000 0.020000 0.786667
0.280000 0.020000 0.853333
0.280000 0.020000 0.920000
0.280000 0.086667 0.000000
0.280000 0.086667 0.000000
0.280000 0.086667 0.053333
0.280000 0.086667 0.120000
0.280000 0.086667 0.186667
0.280000 0.086667 0.253333
0.280000 0.086667 0.320000
0.280000 0.086667 0.386667
0.280000 0.086667 0.453333
0.280000 0.086667 0.520000
0.280000 0.086667 0.586667
0.280000 0.086667 0.653333
0.280000 0.086667 0.720000
0.280000 0.086667 0.786667
0.280000 0.086667 0.853333
0.280000 0.086667 0.920000
0.280000 0.153333 0.000000
0.280000 0.153333 0.000000
0.280000 0.153333 0.053333
0.280000 0.153333 0.120000
0.280000 0.153333 0.186667
0.280000 0.153333 0.253333
0.280000 0.153333 0.320000
0.280000 0.153333 0.386667
0.280000 0.153333 0.453333
0.280000 0.153333 0.520000
0.280000 0.153333 0.586667
0.280000 0.153333 0.653333
0.280000 0.153333 0.720000
0.280000 0.153333 0.786667
0.280000 0.153333 0.853333
0.280000 0.153333 0.920000
0.280000 0.220000 0.000000
0.280000 0.220000 0.000000
0.280000 0.220000 0.053333
0.280000 0.220000 0.120000
0.280000 0.220000 0.186667
0.280000 0.220000 0.253333
0.280000 0.220000 0.320000
0.280000 0.220000 0.386667
0.280000 0.220000 0.453333
0.280000 0.220000 0.520000
0.280000 0.220000 0.586667
0.280000 0.220000 0.653333
0.280000 0.220000 0.720000
0.280000 0.220000 0.786667
0.280000 0.220000 0.853333
0.280000 0.220000 0.920000
0.280000 0.286667 0.000000
0.280000 0.286667 0.000000
0.280000 0.286667 0.053333
0.280000 0.286667 0.120000
0.280000 0.286667 0.186667
0.280000 0.286667 0.253333
0.280000 0.286667 0.320000
0.280000 0.286667 0.386667
0.280000 0.286667 0.453333
0.280000 0.286667 0.520000
0.280000 0.286667 0.586667
0.280000 0.286667 0.653333
0.280000 0.286667 0.720000
0.280000 0.286667 0.786667
0.280000 0.286667 0.853333
0.280000 0.286667 0.920000
0.280000 0.353333 0.000000
0.280000 0.353333 0.000000
0.280000 0.353333 0.053333
0.280000 0.353333 0.120000
0.280000 0.353333 0.186667
0.280000 0.353333 0.253333
0.280000 0.353333 0.320000
0.280000 0.353333 0.386667
0.280000 0.353333 0.453333
0.280000 0.353333 0.520000
0.280000 0.353333 0.586667
0.280000 0.353333 0.653333
0.280000 0.353333 0.720000
0.280000 0.353333 0.786667
0.280000 0.353333 0.853333
0.280000 0.353333 0.920000
0.280000 0.420000 0.000000
0.280000 0.420000 0.000000
0.280000 0.420000 0.053333
0.280000 0.420000 0.120000
0.280000 0.420000 0.186667
0.280000 0.420000 0.253333
0.280000 0.420000 0.320000
0.280000 0.420000 0.386667
0.280000 0.420000 0.453333
0.280000 0.420000 0.520000
0.280000 0.420000 0.586667
0.280000 0.420000 0.653333
0.280000 0.420000 0.720000
0.280000 0.420000 0.786667
0.280000 0.420000 0.853333
0.280000 0.420000 0.920000
0.280000 0.486667 0.000000
0.280000 0.486667 0.000000
0.280000 0.486667 0.053333
0.280000 0.486667 0.120000
0.280000 0.486667 0.186667
0.280000 0.486667 0.253333
0.280000 0.486667 0.320000
