app/src/main/assets/luts/warm.cube
TITLE "warm"
LUT_3D_SIZE 6
0.080000 0.020000 0.000000
0.080000 0.020000 0.120000
0.080000 0.020000 0.320000
0.080000 0.020000 0.520000
0.080000 0.020000 0.720000
0.080000 0.020000 0.920000
0.080000 0.220000 0.000000
0.080000 0.220000 0.120000
0.080000 0.220000 0.320000
0.080000 0.220000 0.520000
0.080000 0.220000 0.720000
0.080000 0.220000 0.920000
0.080000 0.420000 0.000000
0.080000 0.420000 0.120000
0.080000 0.420000 0.320000
0.080000 0.420000 0.520000
0.080000 0.420000 0.720000
0.080000 0.420000 0.920000
0.080000 0.620000 0.000000
0.080000 0.620000 0.120000
0.080000 0.620000 0.320000
0.080000 0.620000 0.520000
0.080000 0.620000 0.720000
0.080000 0.620000 0.920000
0.080000 0.820000 0.000000
0.080000 0.820000 0.120000
0.080000 0.820000 0.320000
0.080000 0.820000 0.520000
0.080000 0.820000 0.720000
0.080000 0.820000 0.920000
0.080000 1.000000 0.000000
0.080000 1.000000 0.120000
0.080000 1.000000 0.320000
0.080000 1.000000 0.520000
0.080000 1.000000 0.720000
0.080000 1.000000 0.920000
0.280000 0.020000 0.000000
0.280000 0.020000 0.120000
0.280000 0.020000 0.320000
0.280000 0.020000 0.520000
0.280000 0.020000 0.720000
0.280000 0.020000 0.920000
0.280000 0.220000 0.000000
0.280000 0.220000 0.120000
0.280000 0.220000 0.320000
0.280000 0.220000 0.520000
0.280000 0.220000 0.720000
0.280000 0.220000 0.920000
0.280000 0.420000 0.000000
0.280000 0.420000 0.120000
0.280000 0.420000 0.320000
0.280000 0.420000 0.520000
0.280000 0.420000 0.720000
0.280000 0.420000 0.920000
0.280000 0.620000 0.000000
0.280000 0.620000 0.120000
0.280000 0.620000 0.320000
0.280000 0.620000 0.520000
0.280000 0.620000 0.720000
0.280000 0.620000 0.920000
0.280000 0.820000 0.000000
0.280000 0.820000 0.120000
0.280000 0.820000 0.320000
0.280000 0.820000 0.520000
0.280000 0.820000 0.720000
0.280000 0.820000 0.920000
0.280000 1.000000 0.000000
0.280000 1.000000 0.120000
0.280000 1.000000 0.320000
0.280000 1.000000 0.520000
0.280000 1.000000 0.720000
0.280000 1.000000 0.920000
0.480000 0.020000 0.000000
0.480000 0.020000 0.120000
0.480000 0.020000 0.320000
0.480000 0.020000 0.520000
0.480000 0.020000 0.720000
0.480000 0.020000 0.920000
0.480000 0.220000 0.000000
0.480000 0.220000 0.120000
0.480000 0.220000 0.320000
0.480000 0.220000 0.520000
0.480000 0.220000 0.720000
0.480000 0.220000 0.920000
0.480000 0.420000 0.000000
0.480000 0.420000 0.120000
0.480000 0.420000 0.320000
0.480000 0.420000 0.520000
0.480000 0.420000 0.720000
0.480000 0.420000 0.920000
0.480000 0.620000 0.000000
0.480000 0.620000 0.120000
0.480000 0.620000 0.320000
0.480000 0.620000 0.520000
0.480000 0.620000 0.720000
0.480000 0.620000 0.920000
0.480000 0.820000 0.000000
0.480000 0.820000 0.120000
0.480000 0.820000 0.320000
0.480000 0.820000 0.520000
0.480000 0.820000 0.720000
0.480000 0.820000 0.920000
0.480000 1.000000 0.000000
0.480000 1.000000 0.120000
0.480000 1.000000 0.320000
0.480000 1.000000 0.520000
0.480000 1.000000 0.720000
0.480000 1.000000 0.920000
0.680000 0.020000 0.000000
0.680000 0.020000 0.120000
0.680000 0.020000 0.320000
0.680000 0.020000 0.520000
0.680000 0.020000 0.720000
0.680000 0.020000 0.920000
0.680000 0.220000 0.000000
0.680000 0.220000 0.120000
0.680000 0.220000 0.320000
0.680000 0.220000 0.520000
0.680000 0.220000 0.720000
0.680000 0.220000 0.920000
0.680000 0.420000 0.000000
0.680000 0.420000 0.120000
0.680000 0.420000 0.320000
0.680000 0.420000 0.520000
0.680000 0.420000 0.720000
0.680000 0.420000 0.920000
0.680000 0.620000 0.000000
0.680000 0.620000 0.120000
0.680000 0.620000 0.320000
0.680000 0.620000 0.520000
0.680000 0.620000 0.720000
0.680000 0.620000 0.920000
0.680000 0.820000 0.000000
0.680000 0.820000 0.120000
0.680000 0.820000 0.320000
0.680000 0.820000 0.520000
0.680000 0.820000 0.720000
0.680000 0.820000 0.920000
0.680000 1.000000 0.000000
0.680000 1.000000 0.120000
0.680000 1.000000 0.320000
0.680000 1.000000 0.520000
0.680000 1.000000 0.720000
0.680000 1.000000 0.920000
0.880000 0.020000 0.000000
0.880000 0.020000 0.120000
0.880000 0.020000 0.320000
0.880000 0.020000 0.520000
0.880000 0.020000 0.720000
0.880000 0.020000 0.920000
0.880000 0.220000 0.000000
0.880000 0.220000 0.120000
0.880000 0.220000 0.320000
0.880000 0.220000 0.520000
0.880000 0.220000 0.720000
0.880000 0.220000 0.920000
0.880000 0.420000 0.000000
0.880000 0.420000 0.120000
0.880000 0.420000 0.320000
0.880000 0.420000 0.520000
0.880000 0.420000 0.720000
0.880000 0.420000 0.920000
0.880000 0.620000 0.000000
0.880000 0.620000 0.120000
0.880000 0.620000 0.320000
0.880000 0.620000 0.520000
0.880000 0.620000 0.720000
0.880000 0.620000 0.920000
0.880000 0.820000 0.000000
0.880000 0.820000 0.120000
0.880000 0.820000 0.320000
0.880000 0.820000 0.520000
0.880000 0.820000 0.720000
0.880000 0.820000 0.920000
0.880000 1.000000 0.000000
0.880000 1.000000 0.120000
0.880000 1.000000 0.320000
0.880000 1.000000 0.520000
0.880000 1.000000 0.720000
0.880000 1.000000 0.920000
1.000000 0.020000 0.000000
1.000000 0.020000 0.120000
1.000000 0.020000 0.320000
1.000000 0.020000 0.520000
1.000000 0.020000 0.720000
1.000000 0.020000 0.920000
1.000000 0.220000 0.000000
1.000000 0.220000 0.120000
1.000000 0.220000 0.320000
1.000000 0.220000 0.520000
1.000000 0.220000 0.720000
1.000000 0.220000 0.920000
1.000000 0.420000 0.000000
1.000000 0.420000 0.120000
1.000000 0.420000 0.320000
1.000000 0.420000 0.520000
1.000000 0.420000 0.720000
1.000000 0.420000 0.920000
1.000000 0.620000 0.000000
1.000000 0.620000 0.120000
1.000000 0.620000 0.320000
1.000000 0.620000 0.520000
1.000000 0.620000 0.720000
1.000000 0.620000 0.920000
1.000000 0.820000 0.000000
1.000000 0.820000 0.120000
1.000000 0.820000 0.320000
1.000000 0.820000 0.520000
1.000000 0.820000 0.720000
1.000000 0.820000 0.920000
1.000000 1.000000 0.000000
1.000000 1.000000 0.120000
1.000000 1.000000 0.320000
1.000000 1.000000 0.520000
1.000000 1.000000 0.720000
1.000000 1.000000 0.920000
